!!!!SEGMENT: pl-cz--iii-744--001-002_zebrowski-marcin-jozef--missa-ex-d-gloria.krn
!!!cenid: 17xx:2344
!!!COM: Żebrowski, Marcin Józef
!!!COM-rismID: pe30020322
!!!CDT: 1702-1770/06/29
!!!CNT: Polish
!!!OPR: Missa ex D
!!!OTL: Gloria
!!!OMV: 002
!!!PDT: 1782
!!!AGN:
!!!SMS-siglum: PL-CZ
!!!SMS-shelfmark: III-744
!!!SMS-shelfwork: 001-002 M
!!!SMS-variant:
!!!SMS-altvar:
!!!NIFC-rismSourceID: 300033496
!!!NIFC-rismChildID: 300033496
!!!NIFC-islandoraID: pl-cz:25261
!!!URL-pdf-islandora: https://repozytorium.nifc.pl/islandora/object/pl-cz%3A25261/datastream/PDF/view
!!!URL-scan: https://polish.musicsources.pl/pl/lokalizacje/galeria/rekopisy/1474 @EN{Scan on Polish Music Sources Website} @PL{Skany w portalu Dziedzictwo Muzyki Polskiej w otwartym dostępie}
!!!IIIF:
!!!ONB-nifc: UWAGA: części Mszy: 1. Kyrie, 2. Gloria, 3. Patrem, 4. Sanctus, 5. Benedictus, 6. Agnus Dei
!!!AIN: 1 bass 2 clrno 1 organ 1 soprn 2 violn
!!!key: D
**kern	**fba	**dynam	**kern	**kern	**dynam	**kern	**text	**kern	**text	**kern	**kern
*	*	*	*group3	*group3	*	*group2	*	*group2	*	*group1	*group1
*part7	*part7	*part7	*part6	*part5	*part5	*part4	*part4	*part3	*part3	*part2	*part1
*staff7	*	*	*staff6	*staff5	*	*staff4	*staff4	*staff3	*staff3	*staff2	*staff1
*I"Organo	*	*	*I"Violino Secundo.	*I"Violino Primo.	*	*I"Baſso.	*	*I"Canto.	*	*I"Clarino Secundo. ex D ad libitum.	*I"Clarino Primo. Ex D: ad libitum.
*I'org	*	*	*I'vl 2	*I'vl 1	*	*I'B	*	*I'S	*	*I'clno 2 in D	*I'clno 1 in D
*Iorgan	*	*	*Ivioln	*Ivioln	*	*Ibass	*	*Isoprn	*	*Iclrno	*Iclrno
*ICklav	*	*	*ICstr	*ICstr	*	*ICvox	*	*ICvox	*	*ICbras	*ICbras
*clefF4	*	*	*clefG2	*clefG2	*	*clefF4	*	*clefC1	*	*clefG2	*clefG2
*	*	*	*	*	*	*	*	*	*	*ITrd-1c-2	*ITrd-1c-2
*k[f#c#]	*	*	*k[f#c#]	*k[f#c#]	*	*k[f#c#]	*	*k[f#c#]	*	*k[f#c#]	*k[f#c#]
*D:	*	*	*D:	*D:	*	*D:	*	*D:	*	*D:	*D:
*M4/4	*	*	*M4/4	*M4/4	*	*M4/4	*	*M4/4	*	*M4/4	*M4/4
*met(c)	*	*	*met(c)	*met(c)	*	*met(c)	*	*met(c)	*	*met(c)	*met(c)
=1	=1	=1	=1	=1	=1	=1	=1	=1	=1	=1	=1
*	*	*	*^	*	*	*	*	*	*	*	*
!LO:TX:a:i:t=Solo.	!	!	!	!	!	!	!	!	!	!	!	!LO:TX:a:t=4:color=grey
!LO:TX:a:i:t=allo&colon;	!	!	!LO:TX:a:i:t=Allo&colon;	!	!	!	!LO:TX:a:i:t=allo&colon;	!	!LO:TX:a:i:t=Allo&colon;	!	!LO:TX:a:t=allo&colon;	!LO:TX:a:t=allo&colon;
8D\L	.	.	8a/L|	8f#\L	16d/LL	.	00r	.	00r	.	00r	00r
.	.	.	.	.	16d/	.	.	.	.	.	.	.
8D\	.	.	8a/|	8f#\	16d/	.	.	.	.	.	.	.
.	.	.	.	.	16d/JJ	.	.	.	.	.	.	.
8D\	.	.	8a/|	8f#\	16d/LL	.	.	.	.	.	.	.
.	.	.	.	.	16d/	.	.	.	.	.	.	.
8D\J	.	.	8a/J|	8f#\J	16d/	.	.	.	.	.	.	.
.	.	.	.	.	16d/JJ	.	.	.	.	.	.	.
8D\L	.	.	8a/L|	8f#\L	8.f#t/L	.	.	.	.	.	.	.
8D\	.	.	8a/|	8f#\	.	.	.	.	.	.	.	.
.	.	.	.	.	32e/LL	.	.	.	.	.	.	.
.	.	.	.	.	32d/JJJ	.	.	.	.	.	.	.
8D\	.	.	8a/|	8f#\	8.f#t/L	.	.	.	.	.	.	.
8D\J	.	.	8a/J|	8f#\J	.	.	.	.	.	.	.	.
.	.	.	.	.	32e/LL	.	.	.	.	.	.	.
.	.	.	.	.	32d/JJJ	.	.	.	.	.	.	.
=2	=2	=2	=2	=2	=2	=2	=2	=2	=2	=2	=2	=2
8C#/L	6	.	8a/L	8e\L	16a/LL	.	.	.	.	.	.	.
.	.	.	.	.	16a/	.	.	.	.	.	.	.
8C#/	.	.	8a/	8e\	16a/	.	.	.	.	.	.	.
.	.	.	.	.	16a/JJ	.	.	.	.	.	.	.
8C#/	.	.	8a/	8e\	16a/LL	.	.	.	.	.	.	.
.	.	.	.	.	16a/	.	.	.	.	.	.	.
8C#/J	.	.	8a/J	8e\J	16a/	.	.	.	.	.	.	.
.	.	.	.	.	16a/JJ	.	.	.	.	.	.	.
8C#/L	.	.	8a/L	8e\L	8.cc#t\L	.	.	.	.	.	.	.
8C#/	.	.	8a/	8e\	.	.	.	.	.	.	.	.
.	.	.	.	.	32b\LL	.	.	.	.	.	.	.
.	.	.	.	.	32a\JJJ	.	.	.	.	.	.	.
8C#/	.	.	8a/	8e\	8.cc#t\L	.	.	.	.	.	.	.
8C#/J	.	.	8a/J	8e\J	.	.	.	.	.	.	.	.
.	.	.	.	.	32b\LL	.	.	.	.	.	.	.
.	.	.	.	.	32a\JJJ	.	.	.	.	.	.	.
=3	=3	=3	=3	=3	=3	=3	=3	=3	=3	=3	=3	=3
8BB/L	7	.	8a/L	8f#\L	16dd\LL	.	.	.	.	.	.	.
.	.	.	.	.	16dd\	.	.	.	.	.	.	.
8BB/	.	.	8a/	8f#\	16dd\	.	.	.	.	.	.	.
.	.	.	.	.	16dd\JJ	.	.	.	.	.	.	.
8BB/	.	.	8a/	8f#\	16dd\LL	.	.	.	.	.	.	.
.	.	.	.	.	16dd\	.	.	.	.	.	.	.
8BB/J	.	.	8a/J	8f#\J	16dd\	.	.	.	.	.	.	.
.	.	.	.	.	16dd\JJ	.	.	.	.	.	.	.
8BB/L	5	.	8dL 8B/	2ryy	8.ff#t\L	.	.	.	.	.	.	.
8BB/	.	.	8d 8B/	.	.	.	.	.	.	.	.	.
.	.	.	.	.	32ee\LL	.	.	.	.	.	.	.
.	.	.	.	.	32dd\JJJ	.	.	.	.	.	.	.
8BB/	6\	.	8d 8B/	.	8.gg#Xt\L	.	.	.	.	.	.	.
8BB/J	.	.	8dJ 8B/	.	.	.	.	.	.	.	.	.
.	.	.	.	.	32ff#\LL	.	.	.	.	.	.	.
.	.	.	.	.	32ee\JJJ	.	.	.	.	.	.	.
*	*	*	*v	*v	*	*	*	*	*	*	*	*
=4	=4	=4	=4	=4	=4	=4	=4	=4	=4	=4	=4
!	!	!	!LO:TX:t=P:problem=mixed beam	!	!	!	!	!	!	!	!
4AA/	.	.	8c#/L	8aa\L	.	.	.	.	.	.	.
.	.	.	16ee\L	16gg#X\L	.	.	.	.	.	.	.
.	.	.	16dd\JJ	16ff#\JJ	.	.	.	.	.	.	.
4r	.	.	16cc#\LL	16ee\LL	.	.	.	.	.	.	.
.	.	.	16b\	16dd\	.	.	.	.	.	.	.
.	.	.	16a\	16cc#\	.	.	.	.	.	.	.
.	.	.	16g#X\JJ	16b\JJ	.	.	.	.	.	.	.
!LO:TX:t=P:problem=mixed beam	!	!	!	!	!	!	!	!	!	!	!
8AA/L	.	.	4a/	4a/	.	.	.	.	.	.	.
16A|\L	.	.	.	.	.	.	.	.	.	.	.
16G|\JJ	.	.	.	.	.	.	.	.	.	.	.
16F#|\LL	.	.	4r	4r	.	.	.	.	.	.	.
16E|\	.	.	.	.	.	.	.	.	.	.	.
16D|\	.	.	.	.	.	.	.	.	.	.	.
16C#|\JJ	.	.	.	.	.	.	.	.	.	.	.
=5	=5	=5	=5	=5	=5	=5	=5	=5	=5	=5	=5
*	*	*	*^	*	*	*	*	*	*	*	*
8D\L	.	.	8a/L	8f#\L	16d/LL	.	4.d\	Et	4.d/	Et	8d/L	8d/L
.	.	.	.	.	16d/	.	.	.	.	.	.	.
8D\	.	.	8a/	8f#\	16d/	.	.	.	.	.	16d/L	16d/L
.	.	.	.	.	16d/JJ	.	.	.	.	.	16d/JJ	16d/JJ
*	*	*	*	*	*tremolo	*	*	*	*	*	*	*
8D\	.	.	8a/	8f#\	16d/LL	.	.	.	.	.	8d/L	8d/L
.	.	.	.	.	16d/	.	.	.	.	.	.	.
8D\J	.	.	8a/J	8f#\J	16d/	.	8d\	in	8d/	in	8d/J	8d/J
.	.	.	.	.	16d/JJ	.	.	.	.	.	.	.
*	*	*	*	*	*Xtremolo	*	*	*	*	*	*	*
8D\L	.	.	8a/L	8f#\L	8.f#t/L	.	4d\	ter-	4f#/	ter-	8f#/L	8f#/L
8D\	.	.	8a/	8f#\	.	.	.	.	.	.	8d/	8d/
.	.	.	.	.	32e/LL	.	.	.	.	.	.	.
.	.	.	.	.	32d/JJJ	.	.	.	.	.	.	.
8D\	.	.	8a/	8f#\	8.f#t/L	.	4d\	-ra	4d/	-ra	8f#/	8f#/
8D\J	.	.	8a/J	8f#\J	.	.	.	.	.	.	8d/J	8d/J
.	.	.	.	.	32e/LL	.	.	.	.	.	.	.
.	.	.	.	.	32d/JJJ	.	.	.	.	.	.	.
!LO:LB:g=original	!	!	!	!	!LO:LB:g=original	!	!	!	!	!	!	!
=6	=6	=6	=6	=6	=6	=6	=6	=6	=6	=6	=6	=6
8C#/L	6	.	8a/L	8e\L	16a/LL	.	4.c#\	pax	4.a\	pax	8a/L	8a/L
.	.	.	.	.	16a/	.	.	.	.	.	.	.
8C#/	.	.	8a/	8e\	16a/	.	.	.	.	.	16a/L	16a/L
.	.	.	.	.	16a/JJ	.	.	.	.	.	16a/JJ	16a/JJ
*	*	*	*	*	*tremolo	*	*	*	*	*	*	*
8C#/	.	.	8a/	8e\	16a/LL	.	.	.	.	.	8a/L	8a/L
.	.	.	.	.	16a/	.	.	.	.	.	.	.
8C#/J	.	.	8a/J	8e\J	16a/	.	8c#\	ho-	8a\	ho-	8a/J	8a/J
.	.	.	.	.	16a/JJ	.	.	.	.	.	.	.
*	*	*	*	*	*Xtremolo	*	*	*	*	*	*	*
8C#/L	.	.	8a/L	8e\L	8.cc#t\L	.	8.c#\	-mi-	8.cc#\	-mi-	4a/	4a/
8C#/	.	.	8a/	8e\	.	.	.	.	.	.	.	.
.	.	.	.	.	32b\LL	.	16c#\	-ni-	16b\	-ni-	.	.
.	.	.	.	.	32a\JJJ	.	.	.	.	.	.	.
8C#/	.	.	8a/	8e\	8.cc#t\L	.	4c#\	-bus	4a\	-bus	4r	4r
8C#/J	.	.	8a/J	8e\J	.	.	.	.	.	.	.	.
.	.	.	.	.	32b\LL	.	.	.	.	.	.	.
.	.	.	.	.	32a\JJJ	.	.	.	.	.	.	.
=7	=7	=7	=7	=7	=7	=7	=7	=7	=7	=7	=7	=7
*	*	*	*	*	*	*	*	*	*	*	*2\right	*
8BB/L	7	.	8a/L	8f#\L	16dd\LL	.	4.B\	bo-	4.dd\	bo-	[2dd\	4.dd\
.	.	.	.	.	16dd\	.	.	.	.	.	.	.
8BB/	.	.	8a/	8f#\	16dd\	.	.	.	.	.	.	.
.	.	.	.	.	16dd\JJ	.	.	.	.	.	.	.
*	*	*	*	*	*tremolo	*	*	*	*	*	*	*
8BB/	.	.	8a/	8f#\	16dd\LL	.	.	.	.	.	.	.
.	.	.	.	.	16dd\	.	.	.	.	.	.	.
8BB/J	.	.	8a/J	8f#\J	16dd\	.	8B\	-nae	8ee\	-nae	.	8ee\
.	.	.	.	.	16dd\JJ	.	.	.	.	.	.	.
*	*	*	*	*	*Xtremolo	*	*	*	*	*	*	*
!	!	!	!LO:LB:g=original	!	!	!	!	!	!	!	!	!
8BB/L	5	.	8d/L	8B\L	8.ff#t\L	.	4B\	vo-	4ff#\	vo-	4.dd\]	4ff#\
8BB/	.	.	8d/	8B\	.	.	.	.	.	.	.	.
.	.	.	.	.	32ee\LL	.	.	.	.	.	.	.
.	.	.	.	.	32dd\JJJ	.	.	.	.	.	.	.
8BB/	6\	.	8d/	8B\	8.gg#Xt\L	.	4B\	-lun-	4gg#X\	-lun-	.	4gg#X\
8BB/J	.	.	8d/J	8B\J	.	.	.	.	.	.	8ee\	.
.	.	.	.	.	32ff#\LL	.	.	.	.	.	.	.
.	.	.	.	.	32ee\JJJ	.	.	.	.	.	.	.
*	*	*	*v	*v	*	*	*	*	*	*	*	*
=8	=8	=8	=8	=8	=8	=8	=8	=8	=8	=8	=8
!	!	!	!LO:TX:t=P:problem=mixed beam	!	!	!	!	!	!	!	!
4AA/	.	.	8c#/L	8aa\L	.	4A\	-ta-	4aa\	-ta-	4a/	4aa\
.	.	.	16ee\L	16gg#X\L	.	.	.	.	.	.	.
.	.	.	16dd\JJ	16ff#\JJ	.	.	.	.	.	.	.
4r	.	.	16cc#\LL	16ee\LL	.	4AA/	-tis	4a\	-tis	4a/	4a/
.	.	.	16b\	16dd\	.	.	.	.	.	.	.
.	.	.	16a\	16cc#\	.	.	.	.	.	.	.
.	.	.	16g#X\JJ	16b\JJ	.	.	.	.	.	.	.
!LO:TX:t=P:problem=mixed beam	!	!	!	!	!	!	!	!	!	!	!
8AA/L	.	.	4a/	4a/	.	2r	.	2r	.	2r	2r
16A|\L	.	.	.	.	.	.	.	.	.	.	.
16G|\JJ	.	.	.	.	.	.	.	.	.	.	.
16F#|\LL	.	.	4r	4r	.	.	.	.	.	.	.
16E|\	.	.	.	.	.	.	.	.	.	.	.
16D|\	.	.	.	.	.	.	.	.	.	.	.
16C#|\JJ	.	.	.	.	.	.	.	.	.	.	.
=9	=9	=9	=9	=9	=9	=9	=9	=9	=9	=9	=9
8F#\L	6	.	16a/LL	16dd\LL	.	1r	.	(8dd\L	lau-	8dd\L	8dd\L
.	.	.	16a/	16dd\	.	.	.	.	.	.	.
8E\	.	.	16a/	16ee\	.	.	.	8ee\	.	8ee\	8ee\
.	.	.	16a/JJ	16ee\JJ	.	.	.	.	.	.	.
*	*	*	*tremolo	*	*	*	*	*	*	*	*
8D\	.	.	16a/LL	16ff#\LL	.	.	.	8ff#\	.	8ff#\	8ff#\
.	.	.	16a/	16ff#\	.	.	.	.	.	.	.
8E\J	.	.	16a/	16ee\	.	.	.	8ee\J)	.	8ee\J	8ee\J
.	.	.	16a/JJ	16ee\JJ	.	.	.	.	.	.	.
8F#\L	6	.	16a/LL	16dd\LL	.	.	.	(8dd\L	-da-	4dd\	4dd\
.	.	.	16a/	16dd\	.	.	.	.	.	.	.
8F#\	-5	.	16a/	16ccn\	.	.	.	8ccn\J)	.	.	.
.	.	.	16a/JJ	16cc\JJ	.	.	.	.	.	.	.
8F#\	.	.	16d/LL	16b/LL	.	.	.	(8b\L	-mus	8d/L	8dd\L
.	.	.	16d/	16b/	.	.	.	.	.	.	.
8F#\J	.	.	16d/	16a/	.	.	.	8a\J)	.	8d/J	8dd\J
.	.	.	16d/JJ	16a/JJ	.	.	.	.	.	.	.
*	*	*	*Xtremolo	*	*	*	*	*	*	*	*
=10	=10	=10	=10	=10	=10	=10	=10	=10	=10	=10	=10
.	.	.	.	.	.	.	.	8qqa/	.	.	.
8G\L|	.	.	16b\LL	4g/	.	(8G\L	be-	4b\	te,	4d/	4dd\
.	.	.	16b\	.	.	.	.	.	.	.	.
8A\|	.	.	16ccn\	.	.	8A\J)	.	.	.	.	.
.	.	.	16cc\JJ	.	.	.	.	.	.	.	.
8B\|	.	.	16dd\LL	4G/	.	(8B\L	-ne-	4r	.	4d/	4dd\
.	.	.	16dd\	.	.	.	.	.	.	.	.
8A\J|	.	.	16ccn\	.	.	8A\J)	.	.	.	.	.
.	.	.	16cc\JJ	.	.	.	.	.	.	.	.
8G\L|	.	.	16b/LL	2r	.	(8G\L	-di-	2r	.	2r	2r
.	.	.	16b/	.	.	.	.	.	.	.	.
8F#\|	.	.	16a/	.	.	8F#\J)	.	.	.	.	.
.	.	.	16a/JJ	.	.	.	.	.	.	.	.
8E\|	.	.	16g/LL	.	.	8E\	-ci-	.	.	.	.
.	.	.	16g/	.	.	.	.	.	.	.	.
8D#X\J|	.	.	16f#/	.	.	8D#X\	-mus	.	.	.	.
.	.	.	16f#/JJ	.	.	.	.	.	.	.	.
=11	=11	=11	=11	=11	=11	=11	=11	=11	=11	=11	=11
4.E\	.	.	16g/LL	16ee\LL	.	4E\	te	(8ee\L	a-	8ee\L	8ee\L
.	.	.	16b/	16ee\	.	.	.	.	.	.	.
.	.	.	16b/	16ff#\	.	.	.	8ff#\J)	.	8ff#\	8ff#\
.	.	.	16b/JJ	16ff#\JJ	.	.	.	.	.	.	.
*	*	*	*tremolo	*	*	*	*	*	*	*	*
.	.	.	16b/LL	16gg\LL	.	4r	.	(8gg\L	-do-	8gg\	8gg\
.	.	.	16b/	16gg\	.	.	.	.	.	.	.
8F#\	.	.	16b/	16ff#\	.	.	.	8ff#\J)	.	8ff#\J	8ff#\J
.	.	.	16b/JJ	16ff#\JJ	.	.	.	.	.	.	.
!LO:TX:t=P:problem=mixed beam	!	!	!	!	!	!	!LO:LB:g=original	!	!	!	!
8G\L	6	.	16b/LL	16ee\LL	.	2r	.	8ee\L	-ra-	4ee\	4ee\
.	.	.	16b/	16ee\	.	.	.	.	.	.	.
8G\	5	.	16b/	16dd\	.	.	.	8dd\J	.	.	.
.	.	.	16b/JJ	16dd\JJ	.	.	.	.	.	.	.
8GG/	.	.	16e/LL	16cc#X\LL	.	.	.	8cc#X\L	-mus	8ee\L	8ee\L
.	.	.	16e/	16cc#\	.	.	.	.	.	.	.
8G\J	.	.	16e/	16b\	.	.	.	8b\J	.	8ee\J	8ee\J
.	.	.	16e/JJ	16b\JJ	.	.	.	.	.	.	.
*	*	*	*Xtremolo	*	*	*	*	*	*	*	*
!	!	!	!	!LO:LB:g=original	!	!	!	!	!	!	!LO:LB:g=original
=12	=12	=12	=12	=12	=12	=12	=12	=12	=12	=12	=12
.	.	.	.	.	.	.	.	8qqb/	.	.	.
8A\L|	.	.	16cc#X\LL	4a/	.	(8A\L	glo-	4cc#\	te,	4a/	4ee\
.	.	.	16cc#\	.	.	.	.	.	.	.	.
8B\|	.	.	16dd\	.	.	8B\J)	.	.	.	.	.
.	.	.	16dd\JJ	.	.	.	.	.	.	.	.
8c#\|	.	.	16ee\LL	4A/	.	8c#\	-ri-	4r	.	4a/	4ee\
.	.	.	16ee\	.	.	.	.	.	.	.	.
8B\J|	.	.	16dd\	.	.	8B\	-fi-	.	.	.	.
.	.	.	16dd\JJ	.	.	.	.	.	.	.	.
!LO:LB:g=original	!	!	!LO:LB:g=original	!	!	!	!	!	!	!	!
8A\L|	.	.	16cc#\LL	2r	.	(8A\L	-ca-	2r	.	2r	2r
.	.	.	16cc#\	.	.	.	.	.	.	.	.
8G\|	.	.	16b\	.	.	8G\J)	.	.	.	.	.
.	.	.	16b\JJ	.	.	.	.	.	.	.	.
8F#\|	.	.	16a/LL	.	.	(8F#\L	-mus	.	.	.	.
.	.	.	16a/	.	.	.	.	.	.	.	.
8E\J|	.	.	16g/	.	.	8E\J)	.	.	.	.	.
.	.	.	16g/JJ	.	.	.	.	.	.	.	.
!	!	!	!	!	!	!LO:LB:g=original	!	!	!	!LO:LB:g=original	!
=13	=13	=13	=13	=13	=13	=13	=13	=13	=13	=13	=13
*	*	*	*	*	*	*	*	*	*	*	*2\right
8F#\L	6	.	16a\LL	16dd\LL	.	4F#\	te	4.dd\	Gra-	2f#/	2dd\
.	.	.	16dd\	16a\	.	.	.	.	.	.	.
8F#\	.	.	16cc#\	16a\	.	.	.	.	.	.	.
.	.	.	16dd\JJ	16a\JJ	.	.	.	.	.	.	.
8F#\	.	.	16dd\LL	16a\LL	.	4r	.	.	.	.	.
.	.	.	16a\	16dd\	.	.	.	.	.	.	.
8F#\J	.	.	16a\	16cc#\	.	.	.	8dd\	-ti-	.	.
.	.	.	16a\JJ	16dd\JJ	.	.	.	.	.	.	.
*	*	*	*	*	*	*	*	*2\right	*	*	*
8C#/L	6	.	16a\LL	16ee\LL	.	4.C#/	gra-	2ee\	-as	2a/	2ee\
.	.	.	16ee\	16a\	.	.	.	.	.	.	.
8C#/	.	.	16dd\	16a\	.	.	.	.	.	.	.
.	.	.	16ee\JJ	16a\JJ	.	.	.	.	.	.	.
8C#/	.	.	16ee\LL	16a\LL	.	.	.	.	.	.	.
.	.	.	16a\	16ee\	.	.	.	.	.	.	.
8C#/J	.	.	16a\	16dd\	.	8C#/	-ti-	.	.	.	.
.	.	.	16a\JJ	16ee\JJ	.	.	.	.	.	.	.
=14	=14	=14	=14	=14	=14	=14	=14	=14	=14	=14	=14
*	*	*	*	*	*	*2\right	*	*	*	*	*
8D\L	.	.	16a\LL	16ff#\LL	.	2D\	-as	4.ff#\	a-	2dd\	2ff#\
.	.	.	16ff#\	16a\	.	.	.	.	.	.	.
8D\	.	.	16ee\	16a\	.	.	.	.	.	.	.
.	.	.	16ff#\JJ	16a\JJ	.	.	.	.	.	.	.
8D\	.	.	16ff#\LL	16a\LL	.	.	.	.	.	.	.
.	.	.	16a\	16ff#\	.	.	.	.	.	.	.
8D\J	.	.	16a\	16ee\	.	.	.	8ff#\	-gi-	.	.
.	.	.	16a\JJ	16ff#\JJ	.	.	.	.	.	.	.
8E\L	6 4 3	.	16a\LL	16gg\LL	.	4E\	a-	2gg\	-mus	2ee\	2gg\
.	.	.	16gg\	16a\	.	.	.	.	.	.	.
8E\	.	.	16ff#\	16a\	.	.	.	.	.	.	.
.	.	.	16gg\JJ	16a\JJ	.	.	.	.	.	.	.
!	!	!	!LO:TX:t=P:problem=mixed beam	!	!	!	!	!	!	!	!
8E\	.	.	16gg\LL	16a\LL	.	8E\	-gi-	.	.	.	.
.	.	.	16a/	16gg\	.	.	.	.	.	.	.
8E\J	.	.	16a/	16ff#\	.	8E\	-mus	.	.	.	.
.	.	.	16a/JJ	16gg\JJ	.	.	.	.	.	.	.
=15	=15	=15	=15	=15	=15	=15	=15	=15	=15	=15	=15
!	!	!	!LO:TX:t=P:problem=mixed beam	!LO:TX:t=P:problem=mixed beam	!	!	!	!	!	!LO:TX:t=P:problem=mixed beam	!LO:TX:t=P:problem=mixed beam
8F#\L	6	.	16f#/LL	16aa\LL	.	4F#\	ti-	4aa\	ti-	8ff#\L	8aa\L
.	.	.	16aa\	16f#/	.	.	.	.	.	.	.
8F#\	.	.	16gg\	16f#/	.	.	.	.	.	8d/	8d/
.	.	.	16aa\JJ	16f#/JJ	.	.	.	.	.	.	.
!	!	!	!LO:TX:t=P:problem=mixed beam	!LO:TX:t=P:problem=mixed beam	!	!	!	!	!	!	!
8F#\	-5	.	16aa\LL	16f#/LL	.	4F#\	-bi	4ccn\	-bi	8d/	8d/
.	.	.	16f#/	16aa\	.	.	.	.	.	.	.
8F#\J	.	.	16f#/	16gg\	.	.	.	.	.	8d/J	8d/J
.	.	.	16f#/JJ	16aa\JJ	.	.	.	.	.	.	.
!	!	!	!LO:TX:t=P:problem=mixed beam	!	!	!	!	!	!	!	!
8G\L	.	.	8g/L	16bb\LL	.	4G\	pro-	4b\	pro-	4d/	4d/
.	.	.	.	16aa\	.	.	.	.	.	.	.
8G\	.	.	16bb\L	16gg\	.	.	.	.	.	.	.
.	.	.	16aa\JJ	16ff#\JJ	.	.	.	.	.	.	.
8G\	6	.	16gg\LL	16ee\LL	.	4G\	-pter	4gg\	-pter	4r	4r
.	.	.	16ff#\	16dd\	.	.	.	.	.	.	.
8G\J	.	.	16ee\	16cc#\	.	.	.	.	.	.	.
.	.	.	16dd\JJ	16b\JJ	.	.	.	.	.	.	.
!	!	!	!LO:LB:g=original	!	!	!	!	!	!	!	!
=16	=16	=16	=16	=16	=16	=16	=16	=16	=16	=16	=16
*	*	*	*^	*	*	*	*	*	*	*	*
8G\L	+4r 2	.	8ee/L	8cc#\L	8a\L	.	(2G\	ma-	(2cc#X\	ma-	2a/	2ee\
8G\	.	.	8ee/	8cc#\	16b\L	.	.	.	.	.	.	.
.	.	.	.	.	16cc#\JJ	.	.	.	.	.	.	.
8G\	.	.	8ee/	8cc#\	16dd\LL	.	.	.	.	.	.	.
.	.	.	.	.	16ee\	.	.	.	.	.	.	.
8G\J	.	.	8ee/J	8cc#\J	16ff#\	.	.	.	.	.	.	.
.	.	.	.	.	16gg\JJ	.	.	.	.	.	.	.
!	!	!	!	!	!LO:TX:t=P:problem=mixed beam	!	!	!	!	!	!	!
8F#\L	6	.	8dd\L	2ryy	16aa\LL	.	4F#\)	.	4dd\)	.	4dd\	4ff#\
.	.	.	.	.	16ff#\	.	.	.	.	.	.	.
8F#\	.	.	8ff#\J	.	16a/	.	.	.	.	.	.	.
.	.	.	.	.	16aa\JJ	.	.	.	.	.	.	.
!	!	!	!	!	!LO:TX:t=P:problem=mixed beam	!	!	!	!	!	!	!
8E\	6	.	8cc#\L	.	16gg\LL	.	4E\	-gna(m)	4ee\	-gnam	4ee\	4gg\
.	.	.	.	.	16ee\	.	.	.	.	.	.	.
8E\J	.	.	8ee\J	.	16a/	.	.	.	.	.	.	.
.	.	.	.	.	16gg\JJ	.	.	.	.	.	.	.
*	*	*	*v	*v	*	*	*	*	*	*	*	*
=17	=17	=17	=17	=17	=17	=17	=17	=17	=17	=17	=17
8D\L	.	.	4a/	4ff#\	.	4D\	glo-	4ff#\	glo-	4ff#\	4aa\
8F#\	.	.	.	.	.	.	.	.	.	.	.
8G\	6	.	8b/L	8.ee\L	.	8G\	-ri-	8ee\	-ri-	8.ee\L	8.gg\L
8E\J	.	.	8g/J	.	.	8E\	-am	8dd\	-am	.	.
.	.	.	.	16dd\Jk	.	.	.	.	.	16dd\Jk	16ff#\Jk
.	.	.	.	.	.	.	.	8qqdd/	.	.	.
!LO:TX:t=P:problem=mixed beam	!	!	!	!	!	!	!	!	!	!	!
8A\L	4	.	4e/	4a/	.	(4A\	tu-	2cc#t\	tu-	4.a/	2eeT\
8G\	.	.	.	.	.	.	.	.	.	.	.
8A\	3	.	4cc#t\	4eeT\	.	4AA/)	.	.	.	.	.
8AA/J	.	.	.	.	.	.	.	.	.	8a/	.
!	!	!	!	!LO:LB:g=original	!	!	!	!	!	!	!
=18	=18	=18	=18	=18	=18	=18	=18	=18	=18	=18	=18
!LO:TX:b:i:t=Solo	!	!	!	!LO:TX:t=P:problem=mixed beam	!	!	!	!	!	!	!
8D/L	.	.	4dd\	16dd\LL	.	4D\	-am.	4dd\	-am,	4f#/	4dd\
.	.	.	.	16d/	.	.	.	.	.	.	.
8D/	.	.	.	16d/	.	.	.	.	.	.	.
.	.	.	.	16d/JJ	.	.	.	.	.	.	.
*	*	*	*	*tremolo	*	*	*	*	*	*	*
8D/	.	.	4r	16d/LL	.	4r	.	4r	.	4r	4r
.	.	.	.	16d/	.	.	.	.	.	.	.
8D/J	.	.	.	16d/	.	.	.	.	.	.	.
.	.	.	.	16d/JJ	.	.	.	.	.	.	.
*	*	*	*	*Xtremolo	*	*	*	*	*	*	*
!	!	!	!LO:TX:t=P:problem=mixed beam	!	!	!	!	!	!	!	!
8C#/L	4 2	.	16dd\LL	8.f#t/L	.	2r	.	2r	.	2r	2r
.	.	.	16d/	.	.	.	.	.	.	.	.
8C#/	.	.	16d/	.	.	.	.	.	.	.	.
.	.	.	16d/JJ	32e/LL	.	.	.	.	.	.	.
.	.	.	.	32d/JJJ	.	.	.	.	.	.	.
*	*	*	*tremolo	*	*	*	*	*	*	*	*
8C#/	.	.	16d/LL	8.f#t/L	.	.	.	.	.	.	.
.	.	.	16d/	.	.	.	.	.	.	.	.
8C#/J	.	.	16d/	.	.	.	.	.	.	.	.
.	.	.	16d/JJ	32e/LL	.	.	.	.	.	.	.
.	.	.	.	32d/JJJ	.	.	.	.	.	.	.
*	*	*	*Xtremolo	*	*	*	*	*	*	*	*
!LO:LB:g=original	!	!	!	!	!	!	!	!	!	!	!
=19	=19	=19	=19	=19	=19	=19	=19	=19	=19	=19	=19
!	!	!	!	!LO:TX:t=P:problem=mixed beam	!	!	!	!LO:TX:a:t=6	!	!	!
8BB/L	5	.	8.f#t/L	16dd\LL	.	00r	.	00r	.	1r	1r
.	.	.	.	16d/	.	.	.	.	.	.	.
8BB/	.	.	.	16d/	.	.	.	.	.	.	.
.	.	.	32e/LL	16d/JJ	.	.	.	.	.	.	.
.	.	.	32d/JJJ	.	.	.	.	.	.	.	.
*	*	*	*	*tremolo	*	*	*	*	*	*	*
8AA/	6 4	.	8.f#t/L	16d/LL	.	.	.	.	.	.	.
.	.	.	.	16d/	.	.	.	.	.	.	.
8AA/J	.	.	.	16d/	.	.	.	.	.	.	.
.	.	.	32e/LL	16d/JJ	.	.	.	.	.	.	.
.	.	.	32d/JJJ	.	.	.	.	.	.	.	.
*	*	*	*	*Xtremolo	*	*	*	*	*	*	*
!	!	!	!LO:TX:t=P:problem=mixed beam	!	!	!	!	!	!	!	!
8GG/L	7 5	.	16dd\LL	8.f#t/L	.	.	.	.	.	.	.
.	.	.	16d/	.	.	.	.	.	.	.	.
8GG/	.	.	16d/	.	.	.	.	.	.	.	.
.	.	.	16d/JJ	32e/LL	.	.	.	.	.	.	.
.	.	.	.	32d/JJJ	.	.	.	.	.	.	.
*	*	*	*tremolo	*	*	*	*	*	*	*	*
8GG#X/	7 5	.	16d/LL	8.f#t/L	.	.	.	.	.	.	.
.	.	.	16d/	.	.	.	.	.	.	.	.
8GG#/J	.	.	16d/	.	.	.	.	.	.	.	.
.	.	.	16d/JJ	32e/LL	.	.	.	.	.	.	.
.	.	.	.	32d/JJJ	.	.	.	.	.	.	.
*	*	*	*Xtremolo	*	*	*	*	*	*	*	*
=20	=20	=20	=20	=20	=20	=20	=20	=20	=20	=20	=20
4AA/	.	.	8c#/L	8A/L	.	.	.	.	.	4a/	4a/
.	.	.	16B/L	16B/L	.	.	.	.	.	.	.
.	.	.	16A/JJ	16c#/JJ	.	.	.	.	.	.	.
[<4A\	5 3	.	16B/LL	16d/LL	.	.	.	.	.	8.a/L	8.a/L
.	.	.	16c#/	16e/	.	.	.	.	.	.	.
.	.	.	16d/	16f#/	.	.	.	.	.	.	.
.	.	.	16e/JJ	16g/JJ	.	.	.	.	.	16a/Jk	16a/Jk
8A\L]	6 4	.	8f#/L	8a/L	.	.	.	.	.	8a/L	8a/L
8G\	4 2	.	16g/L	16b/L	.	.	.	.	.	8a/	8a/
.	.	.	16a/JJ	16cc#/JJ	.	.	.	.	.	.	.
8F#\	6	.	16b\LL	16dd\LL	.	.	.	.	.	8a/	8a/
.	.	.	16cc#\	16ee\	.	.	.	.	.	.	.
8E\J	6	.	16dd\	16ff#\	.	.	.	.	.	8a/J	8a/J
.	.	.	16ee\JJ	16gg\JJ	.	.	.	.	.	.	.
!	!	!	!	!	!	!	!	!	!	!	!LO:LB:g=original
=21	=21	=21	=21	=21	=21	=21	=21	=21	=21	=21	=21
!	!	!	!LO:TX:t=P:problem=mixed beam	!	!	!	!	!	!	!	!
8D\L	.	.	8ff#\L	4aa\|	.	.	.	.	.	4ff#\	4aa\
8D\	.	.	8a/J	.	.	.	.	.	.	.	.
8E\	6	.	8g/L	(4cc#\	.	.	.	.	.	4ee\	4gg\
8E\J	.	.	8e/J	.	.	.	.	.	.	.	.
8F#\L	6	.	8a/L	4dd\)	.	.	.	.	.	2dd\	4ff#\
8F#\	.	.	8f#/J	.	.	.	.	.	.	.	.
8G\	6	.	8b\L	4gg\|	.	.	.	.	.	.	4ee\
8G\J	.	.	8ee\J	.	.	.	.	.	.	.	.
!	!	!	!LO:LB:g=original	!	!	!	!	!	!	!	!
=22	=22	=22	=22	=22	=22	=22	=22	=22	=22	=22	=22
!	!	!	!LO:TX:t=P:problem=mixed beam	!	!	!	!	!	!	!	!
8A\L	6 4	.	8dd\L	8.ff#t\L	.	.	.	.	.	4dd\	4ff#\
8A\	.	.	8f#/J	.	.	.	.	.	.	.	.
.	.	.	.	32ee\LL	.	.	.	.	.	.	.
.	.	.	.	32dd\JJJ	.	.	.	.	.	.	.
.	.	.	8qqf#/	.	.	.	.	.	.	.	.
8A\	.	.	[4g/	8.cc#t\L	.	.	.	.	.	8.a/L	8.ee\L
8A\J	.	.	.	.	.	.	.	.	.	.	.
.	.	.	.	32b\LL	.	.	.	.	.	16a/Jk	16ee\Jk
.	.	.	.	32a\JJJ	.	.	.	.	.	.	.
.	.	.	.	8qqdd/	.	.	.	.	.	.	.
*	*	*	*	*2\right	*	*	*	*	*	*	*
8AA/L	7 3	.	8g/L]	2eeT\	.	.	.	.	.	4a/	2eeT\
8AA/	.	.	8e/	.	.	.	.	.	.	.	.
8AA/	.	.	8d/	.	.	.	.	.	.	4a/	.
8AA/J	.	.	8c#/J	.	.	.	.	.	.	.	.
!	!	!	!	!	!	!	!	!	!	!LO:LB:g=original	!
=23	=23	=23	=23	=23	=23	=23	=23	=23	=23	=23	=23
!	!	!	!	!LO:TX:t=P:problem=mixed beam	!	!	!	!	!	!	!
4D\|	.	.	4ff# 4a 4d/	16dd\LL	.	0r	.	0r	.	4f#/	4dd\
.	.	.	.	16d/	.	.	.	.	.	.	.
.	.	.	.	16d/	.	.	.	.	.	.	.
.	.	.	.	16d/JJ	.	.	.	.	.	.	.
*	*	*	*	*tremolo	*	*	*	*	*	*	*
4D\|	.	.	4ff# 4a 4d/	16d/LL	.	.	.	.	.	8f#/L	8a/L
.	.	.	.	16d/	.	.	.	.	.	.	.
.	.	.	.	16d/	.	.	.	.	.	8f#/J	8a/J
.	.	.	.	16d/JJ	.	.	.	.	.	.	.
*	*	*	*	*Xtremolo	*	*	*	*	*	*	*
!	!	!	!LO:TX:t=P:problem=mixed beam	!	!	!	!	!	!	!	!
4D\|	.	.	16dd\LL	4ff#| 4a 4d/	.	.	.	.	.	8f#/L	8a/L
.	.	.	16d/	.	.	.	.	.	.	.	.
.	.	.	16d/	.	.	.	.	.	.	8f#/	8a/
.	.	.	16d/JJ	.	.	.	.	.	.	.	.
4D\|	.	.	16d/LL	4ff#| 4a 4d/	.	.	.	.	.	8f#/	8a/
.	.	.	16d/	.	.	.	.	.	.	.	.
.	.	.	16d/	.	.	.	.	.	.	8f#/J	8a/J
.	.	.	16d/JJ	.	.	.	.	.	.	.	.
=24	=24	=24	=24	=24	=24	=24	=24	=24	=24	=24	=24
4D\	.	.	4ff# 4a 4d/	4ff# 4a 4d/	.	.	.	.	.	4f#/	4a/
4r	.	.	4r	4r	.	.	.	.	.	4r	4r
2r	.	.	2r	2r	.	.	.	.	.	2r	2r
!LO:LB:g=original	!	!	!	!LO:LB:g=original	!	!	!	!LO:LB:g=original	!	!	!LO:LB:g=original
=25||	=25||	=25||	=25||	=25||	=25||	=25||	=25||	=25||	=25||	=25||	=25||
*M3/4	*	*	*	*M3/4	*	*	*	*M3/4	*	*	*
!LO:TX:b:i:t=Domine	!	!	!	!LO:TX:b:i:t=Domine	!	!	!	!	!	!	!
!LO:TX:a:i:t=Adagio Sol&colon;	!	!	!LO:TX:a:i:t=Domine Deus Tacet	!LO:TX:a:i:t=Ada&colon; Sol&colon;	!	!LO:TX:a:t=Domine Tacet	!	!	!	!LO:TX:a:i:t=Domine Tacet.	!LO:TX:a:i:t=Domine et celique  Tacet.
4B\	.	.	2.ryy	1.r	.	2.ryy	.	4.ff#\	Do-	2.ryy	2.ryy
8r	.	.	.	.	.	.	.	.	.	.	.
8B\L	.	.	.	.	.	.	.	8ff#\	-mi-	.	.
8G\	6	.	.	.	.	.	.	4gg\	-ne	.	.
8E\J	.	.	.	.	.	.	.	.	.	.	.
=26	=26	=26	=26	=26	=26	=26	=26	=26	=26	=26	=26
.	.	.	.	.	.	.	.	8qqff#/	.	.	.
4A\	.	.	2.ryy	.	.	2.ryy	.	2ee\	De-	2.ryy	2.ryy
8r	.	.	.	.	.	.	.	.	.	.	.
8A\L	.	.	.	.	.	.	.	.	.	.	.
8F#\	6	.	.	.	.	.	.	4ff#\	-us	.	.
8D\J	.	.	.	.	.	.	.	.	.	.	.
=27	=27	=27	=27	=27	=27	=27	=27	=27	=27	=27	=27
4C#/	6\	.	2.ryy	2.r	.	2.ryy	.	(4ee\	Rex	2.ryy	2.ryy
4F#\	6 4	.	.	.	.	.	.	4dd\)	.	.	.
4FF#/	5 #	.	.	.	.	.	.	4cc#\	cae-	.	.
=28	=28	=28	=28	=28	=28	=28	=28	=28	=28	=28	=28
*	*	*	*	*^	*	*	*	*	*	*	*
*	*	*	*	*	*	*	*	*	*Xtuplet	*	*	*
!	!	!	!	!	!	!	!	!	!LO:TUP:a:problem=klamra łukowa	!	!	!
4BB/	.	.	2.ryy	4.ff#/	4.dd\	.	2.ryy	.	12dd\L	-les-	2.ryy	2.ryy
.	.	.	.	.	.	.	.	.	12cc#\	.	.	.
.	.	.	.	.	.	.	.	.	12b\J	.	.	.
8r	.	.	.	.	.	.	.	.	4b\	-tis,	.	.
8B\L	.	.	.	8ff#/	8dd\	.	.	.	.	.	.	.
8G\	6	.	.	4gg/	4ee\	.	.	.	4r	.	.	.
8E\J	.	.	.	.	.	.	.	.	.	.	.	.
=29	=29	=29	=29	=29	=29	=29	=29	=29	=29	=29	=29	=29
.	.	.	.	8qqff#/	8qqdd\	.	.	.	.	.	.	.
4AA/	.	.	2.ryy	2ee/	2cc#\	.	2.ryy	.	1.r	.	2.ryy	2.ryy
8r	.	.	.	.	.	.	.	.	.	.	.	.
8A\L	.	.	.	.	.	.	.	.	.	.	.	.
8F#\	6	.	.	4ff#/	4dd\	.	.	.	.	.	.	.
8D\J	.	.	.	.	.	.	.	.	.	.	.	.
*	*	*	*	*v	*v	*	*	*	*	*	*	*
=30	=30	=30	=30	=30	=30	=30	=30	=30	=30	=30	=30
4C#/	6\	.	2.ryy	(16ee\LL	.	2.ryy	.	.	.	2.ryy	2.ryy
.	.	.	.	16gg\	.	.	.	.	.	.	.
.	.	.	.	16ff#\	.	.	.	.	.	.	.
.	.	.	.	16ee\JJ)	.	.	.	.	.	.	.
4F#\	6 4	.	.	4dd\	.	.	.	.	.	.	.
4FF#/	5 #	.	.	4cc#t\	.	.	.	.	.	.	.
=31	=31	=31	=31	=31	=31	=31	=31	=31	=31	=31	=31
4BB/	.	.	2.ryy	8b/L|>	.	2.ryy	.	4r	.	2.ryy	2.ryy
!	!	!	!	!	!LO:DY:t=p.	!	!	!	!	!	!
.	.	.	.	(>8d 8B'>/	p	.	.	.	.	.	.
4r	.	.	.	8d 8B'>/	.	.	.	4gg\	De-	.	.
.	.	.	.	8d 8B'>/	.	.	.	.	.	.	.
4r	.	.	.	8d 8B'>/	.	.	.	4dd\	-us	.	.
.	.	.	.	8gJ 8B'>/)	.	.	.	.	.	.	.
=32	=32	=32	=32	=32	=32	=32	=32	=32	=32	=32	=32
0.r	.	.	2.ryy	(>8gL 8A#X'>/	.	2.ryy	.	(8cc#\L	Pa-	2.ryy	2.ryy
.	.	.	.	8g 8A#'>/	.	.	.	8b\J)	.	.	.
.	.	.	.	.	.	.	.	8qqb/	.	.	.
.	.	.	.	8g 8A#'>/	.	.	.	2cc#\	-ter	.	.
.	.	.	.	8g 8A#'>/	.	.	.	.	.	.	.
.	.	.	.	8g 8A#'>/	.	.	.	.	.	.	.
.	.	.	.	8gJ 8A#'>/)	.	.	.	.	.	.	.
=33	=33	=33	=33	=33	=33	=33	=33	=33	=33	=33	=33
*	*	*	*	*tremolo	*	*	*	*	*	*	*
!	!	!	!	!LO:TX:a:t=......	!	!	!	!	!	!	!
.	.	.	2.ryy	(>8f#L 8An'>/	.	2.ryy	.	4r	.	2.ryy	2.ryy
.	.	.	.	8f# 8A'>/	.	.	.	.	.	.	.
.	.	.	.	8f# 8A'>/	.	.	.	4ff#\	De-	.	.
.	.	.	.	8f# 8A'>/	.	.	.	.	.	.	.
.	.	.	.	8f# 8A'>/	.	.	.	4cc#\	-us	.	.
.	.	.	.	8f#J 8A'>/)	.	.	.	.	.	.	.
=34	=34	=34	=34	=34	=34	=34	=34	=34	=34	=34	=34
!	!	!	!	!LO:TX:a:t=......	!	!	!	!	!	!	!
.	.	.	2.ryy	(>8f#L 8G#X'>/	.	2.ryy	.	(8b\L	Pa-	2.ryy	2.ryy
.	.	.	.	8f# 8G#'>/	.	.	.	8a#X\J)	.	.	.
.	.	.	.	.	.	.	.	8qqa#/	.	.	.
.	.	.	.	8f# 8G#'>/	.	.	.	2b\	-ter	.	.
.	.	.	.	8f# 8G#'>/	.	.	.	.	.	.	.
.	.	.	.	8f# 8G#'>/	.	.	.	.	.	.	.
.	.	.	.	8f#J 8G#'>/)	.	.	.	.	.	.	.
=35	=35	=35	=35	=35	=35	=35	=35	=35	=35	=35	=35
!	!	!	!	!LO:TX:a:t=......	!	!	!	!	!	!	!
.	.	.	2.ryy	(>8eL 8Gn'>/	.	2.ryy	.	(32b\LLL	om-	2.ryy	2.ryy
.	.	.	.	.	.	.	.	32cc#\JJ)	.	.	.
.	.	.	.	.	.	.	.	8.dd\J	.	.	.
.	.	.	.	8e 8G'>/	.	.	.	.	.	.	.
.	.	.	.	.	.	.	.	8qqdd/	.	.	.
.	.	.	.	8e 8G'>/	.	.	.	4.cc#\	-ni-	.	.
.	.	.	.	8e 8G'>/	.	.	.	.	.	.	.
.	.	.	.	8e 8G'>/	.	.	.	.	.	.	.
.	.	.	.	8eJ 8G'>/)	.	.	.	8b\	-po-	.	.
*	*	*	*	*Xtremolo	*	*	*	*	*	*	*
!	!	!	!	!	!	!	!	!LO:LB:g=original	!	!	!
=36	=36	=36	=36	=36	=36	=36	=36	=36	=36	=36	=36
.	.	.	.	.	.	.	.	8qqb/	.	.	.
4r	.	.	2.ryy	4a#X 4f# 4c#/	.	2.ryy	.	2a#X\	-tens	2.ryy	2.ryy
4F#\	#_	.	.	4r	.	.	.	.	.	.	.
4E\	.	.	.	4r	.	.	.	4r	.	.	.
=37	=37	=37	=37	=37	=37	=37	=37	=37	=37	=37	=37
*2\right	*	*	*	*	*	*	*	*	*	*	*
2.D\	n5	.	2.ryy	2.r	.	2.ryy	.	4r	.	2.ryy	2.ryy
.	.	.	.	.	.	.	.	8an\	Do-	.	.
.	.	.	.	.	.	.	.	8a\	-mi-	.	.
.	.	.	.	.	.	.	.	4dd\	-ne	.	.
!LO:LB:g=original	!	!	!	!LO:LB:g=original	!	!	!	!	!	!	!
=38	=38	=38	=38	=38	=38	=38	=38	=38	=38	=38	=38
2.AA/	4	.	2.ryy	4r	.	2.ryy	.	(4dd\	Fi-	2.ryy	2.ryy
.	.	.	.	4ee\	.	.	.	8cc#\L)	.	.	.
.	.	.	.	.	.	.	.	8b\J	.	.	.
.	3	.	.	[4aa\	.	.	.	4cc#\	-li	.	.
=39	=39	=39	=39	=39	=39	=39	=39	=39	=39	=39	=39
2.E\	4	.	2.ryy	4aa\]	.	2.ryy	.	4r	.	2.ryy	2.ryy
.	.	.	.	8gg\L	.	.	.	4b\	u-	.	.
.	.	.	.	8ff#\J	.	.	.	.	.	.	.
.	3	.	.	4gg\	.	.	.	4ee\	-ni-	.	.
=40	=40	=40	=40	=40	=40	=40	=40	=40	=40	=40	=40
2.BB/	4	.	2.ryy	4r	.	2.ryy	.	8ee\	-ge-	2.ryy	2.ryy
.	.	.	.	.	.	.	.	8cc#\	-ni-	.	.
.	.	.	.	.	.	.	.	8qqcc#/	.	.	.
.	3	.	.	4ff#\	.	.	.	2dd\	-te	.	.
.	.	.	.	[4bb\	.	.	.	.	.	.	.
=41	=41	=41	=41	=41	=41	=41	=41	=41	=41	=41	=41
2.C#/	7	.	2.ryy	(4bb\]	.	2.ryy	.	1.r	.	2.ryy	2.ryy
.	6	.	.	8aa\L)	.	.	.	.	.	.	.
.	5	.	.	8gg\	.	.	.	.	.	.	.
.	.	.	.	8ff#\	.	.	.	.	.	.	.
.	.	.	.	8ee\J	.	.	.	.	.	.	.
=42	=42	=42	=42	=42	=42	=42	=42	=42	=42	=42	=42
4D/	.	.	2.ryy	(16ff#\LL	.	2.ryy	.	.	.	2.ryy	2.ryy
.	.	.	.	16gg\JJ)	.	.	.	.	.	.	.
.	7	.	.	4aa\	.	.	.	.	.	.	.
4BB/	.	.	.	.	.	.	.	.	.	.	.
.	6	.	.	16gg\LL	.	.	.	.	.	.	.
.	.	.	.	16ff#\JJ	.	.	.	.	.	.	.
4GG/	6 5	.	.	8ee\L	.	.	.	.	.	.	.
.	.	.	.	8dd\J	.	.	.	.	.	.	.
=43	=43	=43	=43	=43	=43	=43	=43	=43	=43	=43	=43
!	!	!	!	!LO:TUP:a:problem=klamra łukowa	!	!	!	!LO:TUP:a:problem=klamra łukowa	!	!	!
4AA/	.	.	2.ryy	12cc#\L	.	2.ryy	.	12ee\L	Je-	2.ryy	2.ryy
.	.	.	.	12dd\	.	.	.	12ff#\	.	.	.
.	.	.	.	12ee\J	.	.	.	12gg\J	.	.	.
.	.	.	.	8qqee/	.	.	.	8qqgg/	.	.	.
4AA/	6 4	.	.	2dd\	.	.	.	2ff#\	-su	.	.
4AA/	.	.	.	.	.	.	.	.	.	.	.
=44	=44	=44	=44	=44	=44	=44	=44	=44	=44	=44	=44
*	*	*	*	*	*	*	*	*tuplet	*	*	*
!	!	!	!	!LO:TUP:a:problem=klamra łukowa	!	!	!	!LO:TUP:a:problem=klamra łukowa	!	!	!
4AA/	7 3	.	2.ryy	12ee\L	.	2.ryy	.	12cc#\L	Chri-	2.ryy	2.ryy
.	.	.	.	12ff#\	.	.	.	12dd\	.	.	.
.	.	.	.	12gg\J	.	.	.	12ee\J	.	.	.
.	.	.	.	8qqgg/	.	.	.	8qqee/	.	.	.
4AA/	6 4	.	.	2ff#\	.	.	.	2dd\	-ste	.	.
4AA/	.	.	.	.	.	.	.	.	.	.	.
=45	=45	=45	=45	=45	=45	=45	=45	=45	=45	=45	=45
!	!	!	!	!LO:TUP:a:problem=klamra łukowa	!	!	!	!LO:TUP:a:problem=klamra łukowa	!	!	!
4AA/	5 3	.	2.ryy	12cc#\L	.	2.ryy	.	12ee\L	Je-	2.ryy	2.ryy
.	.	.	.	12dd\	.	.	.	12ff#\	.	.	.
.	.	.	.	12ee\J	.	.	.	12gg\J	.	.	.
.	.	.	.	8qqee/	.	.	.	8qqgg/	.	.	.
4AA/	6 4	.	.	2dd\	.	.	.	2ff#\	-su	.	.
4AA/	.	.	.	.	.	.	.	.	.	.	.
=46	=46	=46	=46	=46	=46	=46	=46	=46	=46	=46	=46
!	!	!	!	!LO:TUP:a:problem=klamra łukowa	!	!	!	!LO:TUP:a:problem=klamra łukowa	!	!	!
4AA/	7 3	.	2.ryy	12ee\L	.	2.ryy	.	12cc#\L	Chri-	2.ryy	2.ryy
.	.	.	.	12ff#\	.	.	.	12dd\	.	.	.
.	.	.	.	12gg\J	.	.	.	12ee\J	.	.	.
.	.	.	.	8qqgg/	.	.	.	8qqee/	.	.	.
4AA/	6 4	.	.	2ff#\	.	.	.	2dd\	-ste	.	.
4AA/	.	.	.	.	.	.	.	.	.	.	.
=47	=47	=47	=47	=47	=47	=47	=47	=47	=47	=47	=47
*	*	*	*	*^	*	*	*	*	*	*	*
4A\	5 3	.	2.ryy	4ee 4cc#/	4a\	.	2.ryy	.	4r	.	2.ryy	2.ryy
4G\	4 2	.	.	4r	2ryy	.	.	.	4ee\	u-	.	.
4F#\	6\	.	.	4r	.	.	.	.	4ff#\	-ni-	.	.
*	*	*	*	*v	*v	*	*	*	*	*	*	*
!	!	!	!	!LO:LB:g=original	!	!	!	!LO:LB:g=original	!	!	!
=48	=48	=48	=48	=48	=48	=48	=48	=48	=48	=48	=48
2.E\	5	.	2.ryy	4r	.	2.ryy	.	4.gg\	-ge-	2.ryy	2.ryy
.	.	.	.	4b\	.	.	.	.	.	.	.
.	.	.	.	.	.	.	.	8gg\	-ni-	.	.
.	6	.	.	4cc#\	.	.	.	4gg\	-te	.	.
=49	=49	=49	=49	=49	=49	=49	=49	=49	=49	=49	=49
8B\L	.	.	2.ryy	(32dd\LLL	.	2.ryy	.	8ff#\	Je-	2.ryy	2.ryy
.	.	.	.	32cc#\JJ	.	.	.	.	.	.	.
.	.	.	.	8.b\J)	.	.	.	.	.	.	.
8G\J	.	.	.	.	.	.	.	8gg\	-su	.	.
.	.	.	.	8qqb/	.	.	.	8qqdd/	.	.	.
4A\	.	.	.	2cc#\	.	.	.	2eeT\	Chri-	.	.
4AA/	.	.	.	.	.	.	.	.	.	.	.
!LO:LB:g=original	!	!	!	!	!	!	!	!	!	!	!
=50	=50	=50	=50	=50	=50	=50	=50	=50	=50	=50	=50
*	*	*	*	*^	*	*	*	*	*	*	*
!	!	!LO:DY:t=for	!	!	!	!LO:DY:t=f&colon;	!	!	!	!	!	!
4D\	.	f	2.ryy	4.aa/	4.ff#\	f	2.ryy	.	2dd\	-ste	2.ryy	2.ryy
8r	.	.	.	.	.	.	.	.	.	.	.	.
8d\L	.	.	.	8aa/	8ff#\	.	.	.	.	.	.	.
8B\	6	.	.	4bb/	4gg\	.	.	.	4r	.	.	.
8G\J	.	.	.	.	.	.	.	.	.	.	.	.
=51	=51	=51	=51	=51	=51	=51	=51	=51	=51	=51	=51	=51
.	.	.	.	8qqff#/	8qqdd\	.	.	.	.	.	.	.
4A\	.	.	2.ryy	2ee/	2cc#\	.	2.ryy	.	0.r	.	2.ryy	2.ryy
4G\	2	.	.	.	.	.	.	.	.	.	.	.
4F#\	6	.	.	4ff#/	4dd\	.	.	.	.	.	.	.
=52	=52	=52	=52	=52	=52	=52	=52	=52	=52	=52	=52	=52
4E\	6	.	2.ryy	(4gg/	4ee\	.	2.ryy	.	.	.	2.ryy	2.ryy
4A\	6 4	.	.	4ff#/)	4dd\	.	.	.	.	.	.	.
4AA/	5 3	.	.	4ee/|	4cc#\	.	.	.	.	.	.	.
=53	=53	=53	=53	=53	=53	=53	=53	=53	=53	=53	=53	=53
.	.	.	.	8qqcc#/	8qqcc#\	.	.	.	.	.	.	.
4.D\	.	.	2.ryy	2ff#/	2dd\	.	2.ryy	.	.	.	2.ryy	2.ryy
8E\L	.	.	.	.	.	.	.	.	.	.	.	.
8F#\	6	.	.	4dd/	4f#\	.	.	.	.	.	.	.
8D\J	.	.	.	.	.	.	.	.	.	.	.	.
=54	=54	=54	=54	=54	=54	=54	=54	=54	=54	=54	=54	=54
4C#/	6 5	.	2.ryy	(4ee/	4g\	.	2.ryy	.	.	.	2.ryy	2.ryy
4A\	6 4	.	.	4dd/)	4f#\	.	.	.	.	.	.	.
4G\	6 4	.	.	4cc#/|	4e\	.	.	.	.	.	.	.
*	*	*	*	*v	*v	*	*	*	*	*	*	*
=55	=55	=55	=55	=55	=55	=55	=55	=55	=55	=55	=55
4F#\	6	.	2.ryy	(16d/LL	.	2.ryy	.	1.r	.	2.ryy	2.ryy
.	.	.	.	16f#/	.	.	.	.	.	.	.
.	.	.	.	16a/)	.	.	.	.	.	.	.
.	.	.	.	16dd/JJ|	.	.	.	.	.	.	.
!	!	!	!	!LO:TUP:a:problem=klamra łukowa	!	!	!	!	!	!	!
4E\	6	.	.	12cc#\L	.	.	.	.	.	.	.
.	.	.	.	12ee\	.	.	.	.	.	.	.
.	.	.	.	12b\J	.	.	.	.	.	.	.
!	!	!	!	!LO:TUP:a:problem=klamra łukowa	!	!	!	!	!	!	!
4C#/	6 5	.	.	12a\L	.	.	.	.	.	.	.
.	.	.	.	12ee\	.	.	.	.	.	.	.
.	.	.	.	12g\J	.	.	.	.	.	.	.
=56	=56	=56	=56	=56	=56	=56	=56	=56	=56	=56	=56
.	.	.	.	8qqg/	.	.	.	.	.	.	.
!	!	!	!	!LO:TUP:b:problem=klamra łukowa	!	!	!	!	!	!	!
8D\L	.	.	2.ryy	12f#/L	.	2.ryy	.	.	.	2.ryy	2.ryy
.	.	.	.	12e/	.	.	.	.	.	.	.
8B\J	.	.	.	.	.	.	.	.	.	.	.
.	.	.	.	12d/J	.	.	.	.	.	.	.
.	.	.	.	8qqd/	.	.	.	.	.	.	.
!LO:TX:t=P:problem=mixed beam	!	!	!	!	!	!	!	!	!	!	!
8G\L	6	.	.	2eT/	.	.	.	.	.	.	.
8E\	.	.	.	.	.	.	.	.	.	.	.
8A\	.	.	.	.	.	.	.	.	.	.	.
8AA/J	.	.	.	.	.	.	.	.	.	.	.
=57	=57	=57	=57	=57	=57	=57	=57	=57	=57	=57	=57
!	!	!LO:DY:t=p&colon;	!	!	!	!	!	!	!	!	!
2.D\	.	p	2.ryy	2d/	.	2.ryy	.	4.a\	Do-	2.ryy	2.ryy
.	.	.	.	.	.	.	.	8a\	-mi-	.	.
.	.	.	.	4r	.	.	.	4dd\	-ne	.	.
=58	=58	=58	=58	=58	=58	=58	=58	=58	=58	=58	=58
!	!	!	!	!	!LO:DY:t=p&colon;	!	!	!	!	!	!
2.AA/	4	.	2.ryy	4.ee\	p	2.ryy	.	4dd\	De-	2.ryy	2.ryy
.	3	.	.	.	.	.	.	4cc#\	-us	.	.
.	.	.	.	8ee\	.	.	.	.	.	.	.
.	.	.	.	[4aa\	.	.	.	4r	.	.	.
!	!	!	!	!LO:LB:g=original	!	!	!	!	!	!	!
=59	=59	=59	=59	=59	=59	=59	=59	=59	=59	=59	=59
!	!	!	!	!LO:TX:a:t=P:problem=brak zakończenia ligatury	!	!	!	!	!	!	!
2.E\	4	.	2.ryy	8aa\L]	.	2.ryy	.	4r	.	2.ryy	2.ryy
.	.	.	.	8ff#\J	.	.	.	.	.	.	.
.	.	.	.	8qqff#/	.	.	.	.	.	.	.
.	3	.	.	2gg\	.	.	.	4b\	A-	.	.
.	.	.	.	.	.	.	.	4ee\	-gnus	.	.
=60	=60	=60	=60	=60	=60	=60	=60	=60	=60	=60	=60
!LO:TX:b:i:t=Volti subito.	!	!	!	!	!	!	!	!	!	!	!
2.BB/	4	.	2.ryy	4r	.	2.ryy	.	8ee\L	De-	2.ryy	2.ryy
.	.	.	.	.	.	.	.	8cc#\J	.	.	.
.	3	.	.	4ff#\	.	.	.	4dd\	-i	.	.
!	!	!	!	!LO:TUP:a:problem=klamra łukowa	!	!	!	!	!	!	!
.	.	.	.	12bb\L	.	.	.	4r	.	.	.
.	.	.	.	12aa\	.	.	.	.	.	.	.
.	.	.	.	12gg\J	.	.	.	.	.	.	.
!LO:PB:g=original	!	!	!	!	!	!	!	!	!	!	!
=61	=61	=61	=61	=61	=61	=61	=61	=61	=61	=61	=61
4B\	.	.	2.ryy	4.ff#\	.	2.ryy	.	4.dd\	Fi-	2.ryy	2.ryy
8r	.	.	.	.	.	.	.	.	.	.	.
8B\L	.	.	.	8ff#\	.	.	.	8dd\	-li-	.	.
8G\	6	.	.	4gg\	.	.	.	4ee\	-us	.	.
8E\J	.	.	.	.	.	.	.	.	.	.	.
=62	=62	=62	=62	=62	=62	=62	=62	=62	=62	=62	=62
.	.	.	.	8qqff#/	.	.	.	8qqdd/	.	.	.
4A\	.	.	2.ryy	2ee\	.	2.ryy	.	2cc#\	Pa-	2.ryy	2.ryy
8r	.	.	.	.	.	.	.	.	.	.	.
8A\L	.	.	.	.	.	.	.	.	.	.	.
8F#\	6	.	.	4ff#\	.	.	.	4dd\	-tris	.	.
8D\J	.	.	.	.	.	.	.	.	.	.	.
=63	=63	=63	=63	=63	=63	=63	=63	=63	=63	=63	=63
4G\	.	.	2.ryy	4.dd\	.	2.ryy	.	4.b\	Fi-	2.ryy	2.ryy
8r	.	.	.	.	.	.	.	.	.	.	.
8G\L	.	.	.	8dd\	.	.	.	8b\	-li-	.	.
8E\	6	.	.	4ee\	.	.	.	4cc#\	-us	.	.
8C#\J	.	.	.	.	.	.	.	.	.	.	.
!	!	!	!	!	!	!	!	!LO:LB:g=original	!	!	!
=64	=64	=64	=64	=64	=64	=64	=64	=64	=64	=64	=64
.	.	.	.	8qqdd/	.	.	.	8qqb/	.	.	.
4F#\	#	.	2.ryy	2cc#\	.	2.ryy	.	2a#X\	Pa-	2.ryy	2.ryy
8r	.	.	.	.	.	.	.	.	.	.	.
8F#\L	.	.	.	.	.	.	.	.	.	.	.
8D\	6	.	.	4dd\	.	.	.	4b\	-tris	.	.
8BB\J	.	.	.	.	.	.	.	.	.	.	.
=65	=65	=65	=65	=65	=65	=65	=65	=65	=65	=65	=65
!	!	!	!	!LO:TUP:b:problem=klamra łukowa	!	!	!	!	!	!	!
4F#\	#	.	2.ryy	12a#X/L	.	2.ryy	.	(16cc#\LL	Do-	2.ryy	2.ryy
.	.	.	.	.	.	.	.	16dd\JJ)	.	.	.
.	.	.	.	12b/	.	.	.	.	.	.	.
.	.	.	.	.	.	.	.	8ee\	-mi-	.	.
.	.	.	.	12cc#/J	.	.	.	.	.	.	.
.	.	.	.	8qqcc#/	.	.	.	8qqee/	.	.	.
4F#\	6 4	.	.	2b/	.	.	.	2dd\	-ne	.	.
4F#\	.	.	.	.	.	.	.	.	.	.	.
=66	=66	=66	=66	=66	=66	=66	=66	=66	=66	=66	=66
!	!	!	!	!LO:TUP:a:problem=klamra łukowa	!	!	!	!LO:TUP:a:problem=klamra łukowa	!	!	!
4F#\	7 #	.	2.ryy	12cc#\L	.	2.ryy	.	12a#X\L	De-	2.ryy	2.ryy
.	.	.	.	12dd\	.	.	.	12b\	.	.	.
.	.	.	.	12ee\J	.	.	.	12cc#\J	.	.	.
.	.	.	.	8qqee/	.	.	.	8qqcc#/	.	.	.
4F#\	6 4	.	.	2dd\	.	.	.	2b\	-us	.	.
4F#\	.	.	.	.	.	.	.	.	.	.	.
=67	=67	=67	=67	=67	=67	=67	=67	=67	=67	=67	=67
!	!	!	!	!LO:TUP:b:problem=klamra łukowa	!	!	!	!LO:TUP:a:problem=klamra łukowa	!	!	!
4F#\	5 #	.	2.ryy	12a#X/L	.	2.ryy	.	12cc#\L	A-	2.ryy	2.ryy
.	.	.	.	12b/	.	.	.	12dd\	.	.	.
.	.	.	.	12cc#/J	.	.	.	12ee\J	.	.	.
.	.	.	.	8qqcc#/	.	.	.	8qqee/	.	.	.
4F#\	6 4	.	.	2b/	.	.	.	2dd\	-gnus	.	.
4F#\	.	.	.	.	.	.	.	.	.	.	.
=68	=68	=68	=68	=68	=68	=68	=68	=68	=68	=68	=68
!	!	!	!	!LO:TUP:a:problem=klamra łukowa	!	!	!	!LO:TUP:a:problem=klamra łukowa	!	!	!
4F#\	7 #	.	2.ryy	12cc#\L	.	2.ryy	.	12a#X\L	De-	2.ryy	2.ryy
.	.	.	.	12dd\	.	.	.	12b\	.	.	.
.	.	.	.	12ee\J	.	.	.	12cc#\J	.	.	.
.	.	.	.	8qqee/	.	.	.	8qqcc#/	.	.	.
4F#\	6 4	.	.	2dd\	.	.	.	2b\	-i	.	.
4F#\	.	.	.	.	.	.	.	.	.	.	.
=69	=69	=69	=69	=69	=69	=69	=69	=69	=69	=69	=69
4r	.	.	2.ryy	4.a#X/	.	2.ryy	.	4.cc#\	Fi-	2.ryy	2.ryy
4F#\	#	.	.	.	.	.	.	.	.	.	.
.	.	.	.	8b/	.	.	.	8dd\	-li-	.	.
4E\	+4r -3r	.	.	4cc#\	.	.	.	4ee\	-us	.	.
=70	=70	=70	=70	=70	=70	=70	=70	=70	=70	=70	=70
4D\	6	.	2.ryy	4gg 4b 4d 4B/	.	2.ryy	.	4ff#\	Pa-	2.ryy	2.ryy
4r	.	.	.	4r	.	.	.	8ee\L	.	.	.
.	.	.	.	.	.	.	.	8dd\	.	.	.
4r	.	.	.	4r	.	.	.	8cc#\	.	.	.
.	.	.	.	.	.	.	.	8b\J	.	.	.
!	!	!	!	!LO:LB:g=original	!	!	!	!	!	!	!
=71	=71	=71	=71	=71	=71	=71	=71	=71	=71	=71	=71
!	!	!	!	!	!	!	!	!LO:TUP:a:problem=klamra łukowa	!	!	!
4E\	.	.	2.ryy	2.r	.	2.ryy	.	12gg\L	.	2.ryy	2.ryy
.	.	.	.	.	.	.	.	12ff#\	.	.	.
.	.	.	.	.	.	.	.	12ee\J	.	.	.
4F#\	4	.	.	.	.	.	.	2cc#t\	.	.	.
4FF#/	#	.	.	.	.	.	.	.	.	.	.
!LO:LB:g=original	!	!	!	!	!	!	!	!	!	!	!
=72	=72	=72	=72	=72	=72	=72	=72	=72	=72	=72	=72
*	*	*	*	*^	*	*	*	*	*	*	*
!	!	!LO:DY:t=for	!	!	!	!LO:DY:t=f&colon;	!	!	!	!	!	!
4BB/	.	f	2.ryy	4.ff#/	4.dd\	f	2.ryy	.	2b\	-tris.	2.ryy	2.ryy
8r	.	.	.	.	.	.	.	.	.	.	.	.
8B\L	.	.	.	8ff#/	8dd\	.	.	.	.	.	.	.
8G\	6	.	.	4gg/	4ee\	.	.	.	4r	.	.	.
8E\J	.	.	.	.	.	.	.	.	.	.	.	.
=73	=73	=73	=73	=73	=73	=73	=73	=73	=73	=73	=73	=73
.	.	.	.	8qqff#/	8qqdd\	.	.	.	.	.	.	.
4AA/	.	.	2.ryy	2ee/	2cc#\	.	2.ryy	.	0.r	.	2.ryy	2.ryy
8r	.	.	.	.	.	.	.	.	.	.	.	.
8A\L	.	.	.	.	.	.	.	.	.	.	.	.
8F#\	6	.	.	4ff#/	4dd\	.	.	.	.	.	.	.
8D\J	.	.	.	.	.	.	.	.	.	.	.	.
=74	=74	=74	=74	=74	=74	=74	=74	=74	=74	=74	=74	=74
2.GG/	6 3	.	2.ryy	(4b/	2e\	.	2.ryy	.	.	.	2.ryy	2.ryy
.	-4r	.	.	4ccn/)	.	.	.	.	.	.	.	.
.	3	.	.	4b/|	4e\	.	.	.	.	.	.	.
*	*	*	*	*v	*v	*	*	*	*	*	*	*
=75	=75	=75	=75	=75	=75	=75	=75	=75	=75	=75	=75
4r	.	.	2.ryy	2a#X 2f# 2c#/	.	2.ryy	.	.	.	2.ryy	2.ryy
4F#\	#	.	.	.	.	.	.	.	.	.	.
4E\	+4r 2	.	.	4r	.	.	.	.	.	.	.
=76	=76	=76	=76	=76	=76	=76	=76	=76	=76	=76	=76
4D/	6	.	2.ryy	(16b/LL	.	2.ryy	.	.	.	2.ryy	2.ryy
.	.	.	.	16f#/J)	.	.	.	.	.	.	.
.	.	.	.	8f#t</J	.	.	.	.	.	.	.
4C#/	6\	.	.	(16cc#/LL	.	.	.	.	.	.	.
.	.	.	.	16f#/J)	.	.	.	.	.	.	.
.	.	.	.	8f#t</J	.	.	.	.	.	.	.
4BB/	.	.	.	(16dd/LL	.	.	.	.	.	.	.
.	.	.	.	16f#/J)	.	.	.	.	.	.	.
.	.	.	.	8f#t</J	.	.	.	.	.	.	.
=77	=77	=77	=77	=77	=77	=77	=77	=77	=77	=77	=77
4AA#X/	6	.	2.ryy	(16cc#/LL	.	2.ryy	.	1.r	.	2.ryy	2.ryy
.	.	.	.	16f#/J)	.	.	.	.	.	.	.
.	.	.	.	8f#t</J	.	.	.	.	.	.	.
4BB/	.	.	.	(16dd/LL	.	.	.	.	.	.	.
.	.	.	.	16f#/J)	.	.	.	.	.	.	.
.	.	.	.	8f#t</J	.	.	.	.	.	.	.
4C#/	6\ 4 3	.	.	(16ee/LL	.	.	.	.	.	.	.
.	.	.	.	16f#/J)	.	.	.	.	.	.	.
.	.	.	.	8f#t</J	.	.	.	.	.	.	.
=78	=78	=78	=78	=78	=78	=78	=78	=78	=78	=78	=78
*	*	*	*	*^	*	*	*	*	*	*	*
8D\L	6	.	2.ryy	32ff#\KLL	4ryy	.	2.ryy	.	.	.	2.ryy	2.ryy
.	.	.	.	16.bb\JJ	.	.	.	.	.	.	.	.
.	.	.	.	8qqaa/	.	.	.	.	.	.	.	.
8E\J	.	.	.	16gg\LL	.	.	.	.	.	.	.	.
.	.	.	.	8qqff#/	.	.	.	.	.	.	.	.
.	.	.	.	16ee\JJ	.	.	.	.	.	.	.	.
.	.	.	.	8qqdd/	.	.	.	.	.	.	.	.
4F#\	4	.	.	4.cc#t/	2f#\	.	.	.	.	.	.	.
4FF#/	7 #	.	.	.	.	.	.	.	.	.	.	.
.	.	.	.	8b/	.	.	.	.	.	.	.	.
*	*	*	*	*v	*v	*	*	*	*	*	*	*
=79	=79	=79	=79	=79	=79	=79	=79	=79	=79	=79	=79
2.BB/	.	.	2.ryy	2b 2f# 2B/	.	2.ryy	.	2.r	.	2.ryy	2.ryy
.	.	.	.	4r	.	.	.	.	.	.	.
!	!	!	!LO:LB:g=original	!LO:PB:g=original	!	!LO:LB:g=original	!	!LO:LB:g=original	!	!	!
=80||	=80||	=80||	=80||	=80||	=80||	=80||	=80||	=80||	=80||	=80||	=80||
!!!key: G
*k[f#]	*	*	*k[f#]	*k[f#]	*	*k[f#]	*	*k[f#]	*	*	*
*M2/2	*	*	*M2/2	*M2/2	*	*M2/2	*	*M2/2	*	*	*
*met(c|)	*	*	*met(c|)	*met(c|)	*	*met(c|)	*	*met(c|)	*	*	*
!LO:TX:b:i:t=Qvi tolllis.	!	!	!LO:TX:a:i:t=Allo&colon;	!LO:TX:b:i:t=Qvi tolllis.	!	!	!	!	!	!	!
!LO:TX:a:i:t=Allo&colon; Tut&colon;	!	!	!LO:TX:b:i:t=Qvi tollis	!LO:TX:a:t=allo&colon;	!	!LO:TX:a:i:t=allo&colon;	!	!LO:TX:a:i:t=allo&colon;	!	!	!
1G	.	.	1r	00r	.	1G	Qvi	00r	.	1ryy	1ryy
=81	=81	=81	=81	=81	=81	=81	=81	=81	=81	=81	=81
2F#\	6	.	4r	.	.	2F#\	tol-	.	.	1ryy	1ryy
.	.	.	8dd\L	.	.	.	.	.	.	.	.
.	.	.	8cc\J	.	.	.	.	.	.	.	.
4G\	.	.	4b\	.	.	4G\	-lis	.	.	.	.
4F#\	.	.	4a\	.	.	4F#\	pec-	.	.	.	.
=82	=82	=82	=82	=82	=82	=82	=82	=82	=82	=82	=82
1E	7	.	4g/	.	.	1ET	-ca-	.	.	1ryy	1ryy
.	.	.	8a/L	.	.	.	.	.	.	.	.
.	6	.	8b/J	.	.	.	.	.	.	.	.
.	5	.	4cc\	.	.	.	.	.	.	.	.
.	.	.	[4cc\	.	.	.	.	.	.	.	.
!LO:LB:g=original	!	!	!	!	!	!	!	!	!	!	!
=83	=83	=83	=83	=83	=83	=83	=83	=83	=83	=83	=83
2D\	7	.	4cc\]	.	.	2D\	.	.	.	1ryy	1ryy
.	.	.	8b/L	.	.	.	.	.	.	.	.
.	.	.	8a/J	.	.	.	.	.	.	.	.
[<2G\	.	.	4b/	.	.	2G\	-ta	.	.	.	.
.	.	.	8a/L	.	.	.	.	.	.	.	.
.	.	.	8g/J	.	.	.	.	.	.	.	.
=84	=84	=84	=84	=84	=84	=84	=84	=84	=84	=84	=84
2G\]	2	.	1aT	1r	.	(2G\	mun-	1r	.	1ryy	1ryy
2F#\	6	.	.	.	.	2F#\)	.	.	.	.	.
=85	=85	=85	=85	=85	=85	=85	=85	=85	=85	=85	=85
2G\	.	.	2g/	1dd	.	2G\	-di	1dd	Qvi	1ryy	1ryy
*clefC1	*	*	*	*	*	*	*	*	*	*	*
2dd\	.	.	2r	.	.	2r	.	.	.	.	.
=86	=86	=86	=86	=86	=86	=86	=86	=86	=86	=86	=86
2cc#X\	6	.	4r	2cc#X\	.	00r	.	2cc#X\	tol-	1ryy	1ryy
.	.	.	8aa\L	.	.	.	.	.	.	.	.
.	.	.	8gg\J	.	.	.	.	.	.	.	.
4dd\	.	.	4ff#\	4dd\	.	.	.	4dd\	-lis	.	.
4cc#X\	.	.	4ee\	4cc#X\	.	.	.	4cc#X\	pec-	.	.
=87	=87	=87	=87	=87	=87	=87	=87	=87	=87	=87	=87
1b	7	.	4dd\	1b	.	.	.	1b	-ca-	1ryy	1ryy
.	.	.	8ee\L	.	.	.	.	.	.	.	.
.	.	.	8ff#\J	.	.	.	.	.	.	.	.
.	6	.	4gg\	.	.	.	.	.	.	.	.
.	.	.	[4gg\	.	.	.	.	.	.	.	.
!	!	!	!LO:LB:g=original	!	!	!	!	!	!	!	!
=88	=88	=88	=88	=88	=88	=88	=88	=88	=88	=88	=88
2a\	7 #	.	4gg\]	2a/	.	.	.	2a\	.	1ryy	1ryy
.	.	.	8ff#\L	.	.	.	.	.	.	.	.
.	.	.	8ee\J	.	.	.	.	.	.	.	.
[2dd\	.	.	4ff#\	[2dd\	.	.	.	[2dd\	.	.	.
.	.	.	8ee\L	.	.	.	.	.	.	.	.
.	.	.	8dd\J	.	.	.	.	.	.	.	.
=89	=89	=89	=89	=89	=89	=89	=89	=89	=89	=89	=89
2dd\]	2	.	1eeT	2dd\]	.	.	.	2dd\]	.	1ryy	1ryy
2cc#X\	6	.	.	2cc#X\	.	.	.	2cc#Xt\	.	.	.
=90	=90	=90	=90	=90	=90	=90	=90	=90	=90	=90	=90
2dd\	.	.	4dd\	2dd\	.	0r	.	2dd\	.	1ryy	1ryy
.	.	.	8ee\L	.	.	.	.	.	.	.	.
.	.	.	8ff#\J	.	.	.	.	.	.	.	.
*	*	*	*2\right	*	*	*	*	*	*	*	*
2b\	6	.	[2gg\	2b\	.	.	.	2b\	-ta	.	.
=91	=91	=91	=91	=91	=91	=91	=91	=91	=91	=91	=91
1a	7	.	2gg\]	1a	.	.	.	1a	mun-	1ryy	1ryy
.	6	.	2ff#t\	.	.	.	.	.	.	.	.
*clefF4	*	*	*	*	*	*	*	*	*	*	*
=92	=92	=92	=92	=92	=92	=92	=92	=92	=92	=92	=92
1G	.	.	2gg\	2g/	.	1G	qvi	2g\	-di	1ryy	1ryy
.	.	.	2b\	2r	.	.	.	2b\	qui	.	.
=93	=93	=93	=93	=93	=93	=93	=93	=93	=93	=93	=93
2F#\	6	.	2a/	4r	.	2F#\	tol-	2a\	tol-	1ryy	1ryy
.	.	.	.	8ddd\L	.	.	.	.	.	.	.
.	.	.	.	8ccc\J	.	.	.	.	.	.	.
4G\	.	.	[2dd\	4bb\	.	4G\	-lis	4b\	-lis	.	.
4F#\	.	.	.	4aa\	.	4F#\	pec-	4a\	pec-	.	.
=94	=94	=94	=94	=94	=94	=94	=94	=94	=94	=94	=94
1E	7	.	4dd\]	4gg\	.	1ET	-ca-	1g	-ca-	1ryy	1ryy
.	6	.	8cc\L	8aa\L	.	.	.	.	.	.	.
.	.	.	8b\J	8bb\J	.	.	.	.	.	.	.
.	.	.	4a/	4ccc\	.	.	.	.	.	.	.
.	.	.	4g/	[4ccc\	.	.	.	.	.	.	.
=95	=95	=95	=95	=95	=95	=95	=95	=95	=95	=95	=95
2D\	7	.	4f#/	4ccc\]	.	2D\	.	2a\	.	1ryy	1ryy
.	.	.	2dd\	8bb\L	.	.	.	.	.	.	.
.	.	.	.	8aa\J	.	.	.	.	.	.	.
[2G\	.	.	.	4bb\	.	2G\	-ta	2b\	-ta	.	.
.	.	.	8cc\L	8aa\L	.	.	.	.	.	.	.
.	.	.	8b\J	8gg\J	.	.	.	.	.	.	.
=96	=96	=96	=96	=96	=96	=96	=96	=96	=96	=96	=96
2G\]	4 2	.	2ee\	1aaT	.	(2G\	mun-	1cc	mun-	1ryy	1ryy
2F#\	6	.	2dd\	.	.	2F#\)	.	.	.	.	.
!LO:LB:g=original	!	!	!	!LO:LB:g=original	!	!	!	!	!	!	!
=97	=97	=97	=97	=97	=97	=97	=97	=97	=97	=97	=97
!	!	!	!	!LO:TX:b:i:t=Adagio	!	!	!	!	!	!	!
2G\	.	.	2dd\	2gg\	.	2G\	-di	2b\	-di	1ryy	1ryy
!	!	!	!LO:LB:g=original	!	!	!	!	!	!	!	!
!LO:TX:b:i:t=Adagio.	!	!	!LO:TX:b:i:t=adagio	!	!	!LO:TX:a:i:t=adag&colon;	!	!LO:TX:a:i:t=adag&colon;	!	!	!
2E-X\	-5_	.	2r	2r	.	4G\	mi-	4b-X\	mi-	.	.
.	.	.	.	.	.	4G\	-se-	4b-\	-ſe-	.	.
!	!	!	!	!	!	!	!	!LO:LB:g=original	!	!	!
=98	=98	=98	=98	=98	=98	=98	=98	=98	=98	=98	=98
1E-X	.	.	8r	8r	.	2G\	-re-	2b-y\	-re-	1ryy	1ryy
.	.	.	16r	16r	.	.	.	.	.	.	.
.	.	.	16gg\KL	16bb-X\KL	.	.	.	.	.	.	.
.	.	.	8.gg\	8.bb-\	.	.	.	.	.	.	.
.	.	.	16ee-X\Jk	16gg\Jk	.	.	.	.	.	.	.
.	.	.	8.ee-\L	8.gg\L	.	2G\	-re	2b-\	-re	.	.
.	.	.	16b-X\Jk	16ee-X\Jk	.	.	.	.	.	.	.
.	.	.	8.g/L	8.b-X/L	.	.	.	.	.	.	.
.	.	.	16e-X/Jk	16g/Jk	.	.	.	.	.	.	.
=99	=99	=99	=99	=99	=99	=99	=99	=99	=99	=99	=99
2r	x	.	2c#X/	2c#X/|>	.	2r	.	2r	.	1ryy	1ryy
2C#X/	-7r_ 5_	.	4b-X/|	4gg\|	.	4c#X\	mi-	4b-X\	mi-	.	.
.	.	.	4b-/|	4gg\|	.	4c#\	-se-	4b-\	-ſe-	.	.
!	!	!	!	!	!	!LO:LB:g=original	!	!	!	!	!
=100	=100	=100	=100	=100	=100	=100	=100	=100	=100	=100	=100
!	!	!	!LO:SIC:v:s=4b-X/|	!	!	!	!	!	!	!	!
4C#X|/	.	.	4b/|	4gg\|	.	2c#X\	-re-	2b-y\	-re-	1ryy	1ryy
!	!	!	!LO:SIC:v:s=4b-/|	!	!	!	!	!	!	!	!
4C#|/	.	.	4b/|	4gg\|	.	.	.	.	.	.	.
!	!	!	!LO:SIC:v:s=4b-/|	!	!	!	!	!	!	!	!
4C#|/	.	.	4b/|	4gg\|	.	2c#\	-re	2b-\	-re	.	.
!	!	!	!LO:SIC:v:s=4b-/|	!	!	!	!	!	!	!	!
4C#|/	.	.	4b/|	[4gg\|	.	.	.	.	.	.	.
=101	=101	=101	=101	=101	=101	=101	=101	=101	=101	=101	=101
1D	4	.	1a	4gg\]	.	2d\	no-	2a\	no-	1ryy	1ryy
.	.	.	.	8ff#\L	.	.	.	.	.	.	.
.	.	.	.	8ee\J	.	.	.	.	.	.	.
.	.	.	.	8qqee/	.	.	.	.	.	.	.
.	3	.	.	2ff#\	.	2D/	-bis	2a\	-bis	.	.
=102	=102	=102	=102	=102	=102	=102	=102	=102	=102	=102	=102
!	!	!	!LO:TX:b:i:t=Volti subito.	!	!	!	!	!	!	!	!
!LO:TX:b:i:t=allö&colon;	!	!	!LO:TX:b:i:t=allo&colon;	!LO:TX:b:i:t=Allo&colon;	!	!LO:TX:a:i:t=allo&colon;	!	!	!	!	!
1d	.	.	1r	00r	.	1d	Qvi	00r	.	1ryy	1ryy
!	!	!	!LO:PB:g=original	!	!	!	!	!	!	!	!
=103	=103	=103	=103	=103	=103	=103	=103	=103	=103	=103	=103
2c#X\	6	.	4r	.	.	2c#X\	tol-	.	.	1ryy	1ryy
.	.	.	8a/L	.	.	.	.	.	.	.	.
.	.	.	8g/J	.	.	.	.	.	.	.	.
4d\	.	.	4f#/	.	.	4d\	-lis	.	.	.	.
4c#\	.	.	4e/	.	.	4c#\	pec-	.	.	.	.
=104	=104	=104	=104	=104	=104	=104	=104	=104	=104	=104	=104
1B	7	.	4d/	.	.	1Bt	-ca-	.	.	1ryy	1ryy
.	.	.	8e/L	.	.	.	.	.	.	.	.
.	.	.	8f#/J	.	.	.	.	.	.	.	.
.	6	.	4g/	.	.	.	.	.	.	.	.
.	.	.	[>4g/	.	.	.	.	.	.	.	.
=105	=105	=105	=105	=105	=105	=105	=105	=105	=105	=105	=105
2A\	7 #	.	4g/]	.	.	2A\	.	.	.	1ryy	1ryy
.	.	.	8f#/L	.	.	.	.	.	.	.	.
.	.	.	8e/J	.	.	.	.	.	.	.	.
[2d\	.	.	4f#/	.	.	2d\	-ta	.	.	.	.
.	.	.	8e/L	.	.	.	.	.	.	.	.
.	.	.	8d/J	.	.	.	.	.	.	.	.
=106	=106	=106	=106	=106	=106	=106	=106	=106	=106	=106	=106
2d\]	2	.	1eT	1r	.	(2d\	mun-	1r	.	1ryy	1ryy
2c#X\	6	.	.	.	.	2c#X\)	.	.	.	.	.
=107	=107	=107	=107	=107	=107	=107	=107	=107	=107	=107	=107
2d\	.	.	2d/	1a	.	2d\	-di,	1a	Qvi	1ryy	1ryy
*clefC1	*	*	*	*	*	*	*	*	*	*	*
2a\	#	.	2r	.	.	2r	.	.	.	.	.
=108	=108	=108	=108	=108	=108	=108	=108	=108	=108	=108	=108
2g#X/	6	.	4r	2g#X/	.	00r	.	2g#X\	tol-	1ryy	1ryy
.	.	.	8ee\L	.	.	.	.	.	.	.	.
.	.	.	8dd\J	.	.	.	.	.	.	.	.
4a\	#	.	4cc#X\	4a/	.	.	.	4a\	-lis	.	.
4g#\	.	.	4b\	4g#X/	.	.	.	4g#X\	pec-	.	.
=109	=109	=109	=109	=109	=109	=109	=109	=109	=109	=109	=109
1f#	7	.	4a\	1f#	.	.	.	1f#	-ca-	1ryy	1ryy
.	.	.	8b\L	.	.	.	.	.	.	.	.
.	.	.	8cc#X\J	.	.	.	.	.	.	.	.
.	6	.	4dd\	.	.	.	.	.	.	.	.
.	.	.	[4dd\	.	.	.	.	.	.	.	.
!LO:LB:g=original	!	!	!	!	!	!	!	!	!	!	!
=110	=110	=110	=110	=110	=110	=110	=110	=110	=110	=110	=110
2e/	7 #	.	4dd\]	2e/	.	.	.	2e/	.	1ryy	1ryy
.	.	.	8cc#X\L	.	.	.	.	.	.	.	.
.	.	.	8b\J	.	.	.	.	.	.	.	.
2a\	#	.	4cc#X\	[>2a/	.	.	.	[2a\	.	.	.
.	.	.	8b\L	.	.	.	.	.	.	.	.
.	.	.	8a\J	.	.	.	.	.	.	.	.
=111	=111	=111	=111	=111	=111	=111	=111	=111	=111	=111	=111
2a\	2	.	1bt	2a/]	.	.	.	2a\]	.	1ryy	1ryy
2g#X\	6	.	.	2g#X/	.	.	.	2g#X\	.	.	.
=112	=112	=112	=112	=112	=112	=112	=112	=112	=112	=112	=112
2a\	#	.	4a/	2a/	.	0r	.	2a\	.	1ryy	1ryy
.	.	.	8b\L	.	.	.	.	.	.	.	.
.	.	.	8cc#X\J	.	.	.	.	.	.	.	.
2f#/	6	.	[2dd\	2f#/	.	.	.	2f#/	-ta	.	.
!	!	!	!LO:LB:g=original	!	!	!	!	!	!	!	!
=113	=113	=113	=113	=113	=113	=113	=113	=113	=113	=113	=113
1e	7	.	2dd\]	1eT	.	.	.	1e	mun-	1ryy	1ryy
.	6\	.	2cc#X\	.	.	.	.	.	.	.	.
!	!	!	!	!LO:LB:g=original	!	!	!	!	!	!	!
=114	=114	=114	=114	=114	=114	=114	=114	=114	=114	=114	=114
*clefF4	*	*	*	*	*	*	*	*	*	*	*
1D	.	.	4dd\	2d/	.	1d	Qvi	2d/	-di	1ryy	1ryy
.	.	.	4d/	.	.	.	.	.	.	.	.
!	!	!	!	!	!	!	!	!LO:TX:b:i:t=V&colon; S&colon;	!	!	!
.	.	.	4f#/	2r	.	.	.	2ff#\	qvi	.	.
.	.	.	4a/	.	.	.	.	.	.	.	.
!	!	!	!	!	!	!	!	!LO:PB:g=original	!	!	!
=115	=115	=115	=115	=115	=115	=115	=115	=115	=115	=115	=115
2C#X/	6	.	2e/	4r	.	2c#X\	tol-	2ee\	tol-	1ryy	1ryy
.	.	.	.	8aa\L	.	.	.	.	.	.	.
.	.	.	.	8gg\J	.	.	.	.	.	.	.
4D/	.	.	[>2a/	4ff#\	.	4d\	-lis	4ff#\	-lis	.	.
4C#/	.	.	.	4ee\	.	4c#\	pec-	4ee\	pec-	.	.
=116	=116	=116	=116	=116	=116	=116	=116	=116	=116	=116	=116
1BB	7	.	4a/]	4dd\	.	1Bt	-ca-	1dd	-ca-	1ryy	1ryy
.	6	.	8g/L	8ee\L	.	.	.	.	.	.	.
.	.	.	8f#/J	8ff#\J	.	.	.	.	.	.	.
.	.	.	4e/	4gg\	.	.	.	.	.	.	.
.	.	.	4d/	[4gg\	.	.	.	.	.	.	.
=117	=117	=117	=117	=117	=117	=117	=117	=117	=117	=117	=117
2AA/	7 #	.	4c#X/	4gg\]	.	2A\	.	2ee\	.	1ryy	1ryy
.	.	.	2a/	8ff#\L	.	.	.	.	.	.	.
.	.	.	.	8ee\J	.	.	.	.	.	.	.
[2D/	.	.	.	4ff#\	.	2d\	-ta	2ff#\	-ta	.	.
.	.	.	8g/L	8ee\L	.	.	.	.	.	.	.
.	.	.	8f#/J	8dd\J	.	.	.	.	.	.	.
=118	=118	=118	=118	=118	=118	=118	=118	=118	=118	=118	=118
2D/]	2	.	2b/	1eeT	.	(2d\	mun-	1gg	mun-	1ryy	1ryy
2C#X/	6	.	2a/	.	.	2c#X\)	.	.	.	.	.
=119	=119	=119	=119	=119	=119	=119	=119	=119	=119	=119	=119
2D/	.	.	2a/	2dd\	.	2d\	-di	2ff#\	-di	1ryy	1ryy
2r	.	.	2r	2r	.	2r	.	2r	.	.	.
!	!	!	!	!	!	!LO:LB:g=original	!	!	!	!	!
=120||	=120||	=120||	=120||	=120||	=120||	=120||	=120||	=120||	=120||	=120||	=120||
*M3/4	*	*	*M3/4	*M3/4	*	*M3/4	*	*M3/4	*	*	*
!LO:TX:b:i:t=Adagio	!	!	!LO:TX:b:i:t=adagio	!LO:TX:b:i:t=Adagio	!	!LO:TX:a:i:t=adagio	!	!LO:TX:a:t=adagio	!	!	!
4d\	.	.	4.ff#\	4.aa\	.	1.r	.	1.r	.	2.ryy	2.ryy
4d\	.	.	.	.	.	.	.	.	.	.	.
.	.	.	8ff#\	8aa\	.	.	.	.	.	.	.
4d\	.	.	4ff#\	4aa\	.	.	.	.	.	.	.
=121	=121	=121	=121	=121	=121	=121	=121	=121	=121	=121	=121
4d\	-6 4	.	(4gg\	4bb-X\	.	.	.	.	.	2.ryy	2.ryy
4d\	7 5	.	4aa\)	4ccc\	.	.	.	.	.	.	.
4d\	-6 4	.	4gg\	4bb-\|	.	.	.	.	.	.	.
!LO:LB:g=original	!	!	!	!	!	!	!	!	!	!	!
=122	=122	=122	=122	=122	=122	=122	=122	=122	=122	=122	=122
!	!	!	!	!LO:SIC:v:s=8qqbb-/	!	!	!	!	!	!	!
.	.	.	8qqgg/	8qqbb/	.	.	.	.	.	.	.
4D/	5 3	.	2ff#\	2aa\	.	4.F#\	Sus-	4.a\	Sus-	2.ryy	2.ryy
4D/	.	.	.	.	.	.	.	.	.	.	.
.	.	.	.	.	.	8F#\	-ci-	8a\	-ci-	.	.
4D/	.	.	4r	4r	.	4F#\	-pe	4a\	-pe	.	.
=123	=123	=123	=123	=123	=123	=123	=123	=123	=123	=123	=123
4D/	-6 4	.	1.r	1.r	.	8G\	de-	8b-X\	de-	2.ryy	2.ryy
.	.	.	.	.	.	8G\	-pre-	8b-\	-pre-	.	.
4D/	7 5	.	.	.	.	4A\	-ca-	4cc\	-ca-	.	.
4D/	-6 4	.	.	.	.	4G\	-ti-	4b-X\	-ti-	.	.
=124	=124	=124	=124	=124	=124	=124	=124	=124	=124	=124	=124
.	.	.	.	.	.	8qqG/	.	8qqb-y/	.	.	.
2D/	5 3	.	.	.	.	2F#\	-o-	2a\	-o-	2.ryy	2.ryy
4C#X/	-7r 5	.	.	.	.	4G\	-nem	4b-X\	-nem	.	.
=125	=125	=125	=125	=125	=125	=125	=125	=125	=125	=125	=125
4D/	6 4	.	2.r	2.r	.	4G\	no-	4b-y\	no-	2.ryy	2.ryy
4DD/	5 3	.	.	.	.	4F#\	-stra(m)	4a\	-stram	.	.
4r	.	.	.	.	.	4r	.	4r	.	.	.
!	!	!	!LO:LB:g=original	!	!	!	!	!	!	!	!
=126||	=126||	=126||	=126||	=126||	=126||	=126||	=126||	=126||	=126||	=126||	=126||
*M2/2	*	*	*M2/2	*M2/2	*	*M2/2	*	*M2/2	*	*	*
*met(c|)	*	*	*met(c|)	*met(c|)	*	*met(c|)	*	*met(c|)	*	*	*
!LO:TX:b:i:t=Qui sedes.	!	!	!	!LO:TX:b:i:t=Qvi sedes	!	!	!	!	!	!	!
!LO:TX:b:i:t=allo	!	!	!LO:TX:b:i:t=allo&colon;	!LO:TX:a:i:t=Allo&colon;	!	!LO:TX:a:i:t=allo&colon;	!	!LO:TX:a:t=allo&colon;	!	!	!
1G	n	.	1r	00r	.	1G	Qvi	00r	.	1ryy	1ryy
=127	=127	=127	=127	=127	=127	=127	=127	=127	=127	=127	=127
2F#\	6	.	4r	.	.	2F#\	se-	.	.	1ryy	1ryy
.	.	.	8dd\L	.	.	.	.	.	.	.	.
.	.	.	8cc\J	.	.	.	.	.	.	.	.
4G\	.	.	4b/	.	.	4G\	-des	.	.	.	.
4F#\	.	.	4a/	.	.	4F#\	ad	.	.	.	.
=128	=128	=128	=128	=128	=128	=128	=128	=128	=128	=128	=128
1E	7	.	4g/	.	.	2.E\	dex-	.	.	1ryy	1ryy
.	.	.	8a/L	.	.	.	.	.	.	.	.
.	.	.	8b/J	.	.	.	.	.	.	.	.
.	6	.	4cc\	.	.	.	.	.	.	.	.
.	.	.	[4cc\	.	.	4E\	-te-	.	.	.	.
=129	=129	=129	=129	=129	=129	=129	=129	=129	=129	=129	=129
2D\	7	.	4cc\]	.	.	2D\	-ram	.	.	1ryy	1ryy
.	.	.	8b\L	.	.	.	.	.	.	.	.
.	.	.	8a\J	.	.	.	.	.	.	.	.
[2G\	.	.	4b/	.	.	[2G\	Pa-	.	.	.	.
.	.	.	8a/L	.	.	.	.	.	.	.	.
.	.	.	8g/J	.	.	.	.	.	.	.	.
=130	=130	=130	=130	=130	=130	=130	=130	=130	=130	=130	=130
2G\]	4 2	.	1aT	1r	.	2G\]	.	1r	.	1ryy	1ryy
2F#\	6	.	.	.	.	2F#t\	.	.	.	.	.
=131	=131	=131	=131	=131	=131	=131	=131	=131	=131	=131	=131
2G\	.	.	2g/	1dd	.	2G\	-tris	1dd	Qvi	1ryy	1ryy
*clefC1	*	*	*	*	*	*	*	*	*	*	*
2dd\	.	.	2r	.	.	2r	.	.	.	.	.
!	!	!	!	!LO:LB:g=original	!	!	!	!	!	!	!
=132	=132	=132	=132	=132	=132	=132	=132	=132	=132	=132	=132
2cc#X\	6	.	4r	2cc#X\	.	00r	.	2cc#X\	se-	1ryy	1ryy
.	.	.	8aa\L	.	.	.	.	.	.	.	.
.	.	.	8gg\J	.	.	.	.	.	.	.	.
4dd\	.	.	4ff#\	4dd\	.	.	.	4dd\	-des	.	.
4cc#\	.	.	4ee\	4cc#\	.	.	.	4cc#X\	ad	.	.
!	!	!	!	!	!	!	!	!LO:LB:g=original	!	!	!
=133	=133	=133	=133	=133	=133	=133	=133	=133	=133	=133	=133
1b	7	.	4dd\	1b	.	.	.	2.b\	dex-	1ryy	1ryy
.	.	.	8ee\L	.	.	.	.	.	.	.	.
.	.	.	8ff#\J	.	.	.	.	.	.	.	.
.	6	.	4gg\	.	.	.	.	.	.	.	.
.	.	.	[4gg\	.	.	.	.	4b\	-te-	.	.
=134	=134	=134	=134	=134	=134	=134	=134	=134	=134	=134	=134
2a\	7 #	.	4gg\]	2a/	.	.	.	2a\	-ra	1ryy	1ryy
.	.	.	8ff#\L	.	.	.	.	.	.	.	.
.	.	.	8ee\J	.	.	.	.	.	.	.	.
[2dd\	.	.	4ff#\	[2dd\	.	.	.	[2dd\	Pa-	.	.
.	.	.	8ee\L	.	.	.	.	.	.	.	.
.	.	.	8dd\J	.	.	.	.	.	.	.	.
!LO:LB:g=original	!	!	!LO:LB:g=original	!	!	!	!	!	!	!	!
=135	=135	=135	=135	=135	=135	=135	=135	=135	=135	=135	=135
2dd\]	4 2	.	1eeT	2dd\]	.	.	.	2dd\]	.	1ryy	1ryy
2cc#X\	6	.	.	2cc#X\	.	.	.	2cc#X\	.	.	.
=136	=136	=136	=136	=136	=136	=136	=136	=136	=136	=136	=136
2dd\	.	.	4dd\	2dd\	.	0r	.	2dd\	-tris	1ryy	1ryy
.	.	.	8ee\L	.	.	.	.	.	.	.	.
.	.	.	8ff#\J	.	.	.	.	.	.	.	.
2b\	6	.	[2gg\	2b\	.	.	.	2b\	Pa-	.	.
=137	=137	=137	=137	=137	=137	=137	=137	=137	=137	=137	=137
1a	7	.	2gg\]	1aT	.	.	.	1aT	.	1ryy	1ryy
.	6	.	2ff#t\	.	.	.	.	.	.	.	.
=138	=138	=138	=138	=138	=138	=138	=138	=138	=138	=138	=138
*clefF4	*	*	*	*	*	*	*	*	*	*	*
1G	.	.	2gg\	2g/	.	1G	Qvi	2g,<\	-tris	1ryy	1ryy
.	.	.	2b\	2r	.	.	.	2b\	qvi	.	.
=139	=139	=139	=139	=139	=139	=139	=139	=139	=139	=139	=139
2F#\	6	.	2a/	4r	.	2F#\	se-	2a\	se-	1ryy	1ryy
.	.	.	.	8ddd\L	.	.	.	.	.	.	.
.	.	.	.	8ccc\J	.	.	.	.	.	.	.
4G\	.	.	[2dd\	4bb\	.	4G\	-des	4b\	-des	.	.
4F#\	.	.	.	4aa\	.	4F#\	ad	4a\	ad	.	.
!	!	!	!	!	!	!LO:LB:g=original	!	!	!	!	!
=140	=140	=140	=140	=140	=140	=140	=140	=140	=140	=140	=140
1E	7	.	4dd\]	4gg\	.	2.E\	dex-	1g	dex-	1ryy	1ryy
.	.	.	8cc\L	8aa\L	.	.	.	.	.	.	.
.	.	.	8b\J	8bb\J	.	.	.	.	.	.	.
.	.	.	4a/	4ccc\	.	.	.	.	.	.	.
.	6	.	4g/	[4ccc\	.	4E\	-te-	.	.	.	.
=141	=141	=141	=141	=141	=141	=141	=141	=141	=141	=141	=141
2D\	7	.	4f#/	4ccc\]	.	2D\	-ram	2a\	.	1ryy	1ryy
.	.	.	2dd\	8bb\L	.	.	.	.	.	.	.
.	.	.	.	8aa\J	.	.	.	.	.	.	.
[2G\	.	.	.	4bb\	.	[2G\	Pa-	4b\	-te-	.	.
.	.	.	8cc\L	8aa\L	.	.	.	4b\	-ram	.	.
.	.	.	8b\J	8gg\J	.	.	.	.	.	.	.
=142	=142	=142	=142	=142	=142	=142	=142	=142	=142	=142	=142
2G\]	4 2	.	2ee\	1aa	.	2G\]	.	1ccT	Pa-	1ryy	1ryy
2F#\	6	.	2dd\	.	.	2F#\	.	.	.	.	.
=143	=143	=143	=143	=143	=143	=143	=143	=143	=143	=143	=143
4G\	.	.	4dd\	4gg\	.	4G\	-tris	4b,<\	-tris	1ryy	1ryy
8G\L	.	.	2g/	4b\	.	(8G\L	qvi	4b\	qvi	.	.
8Fn\J	.	.	.	.	.	8Fn\J)	.	.	.	.	.
4E\	6	.	.	4cc\	.	(4E\	se-	(4cc\	se-	.	.
4D\	6 n	.	8a/L	4dd\	.	4D\)	.	4dd\)	.	.	.
.	.	.	8b/J	.	.	.	.	.	.	.	.
!	!	!	!	!LO:LB:g=original	!	!	!	!	!	!	!
=144	=144	=144	=144	=144	=144	=144	=144	=144	=144	=144	=144
4C/	.	.	8cc\L	4ee\	.	4C/	-des	4ee\	-des	1ryy	1ryy
.	.	.	8g\J	.	.	.	.	.	.	.	.
8A\L	#	.	2a/	4cc#X\	.	(8A\L	ad	4cc#X\	ad	.	.
8G\J	.	.	.	.	.	8G\J)	.	.	.	.	.
4F#X\	6	.	.	4dd\	.	4F#\	dex-	4dd\	dex-	.	.
4E\	6\	.	8b\L	4ee\	.	4E\	-te-	4ee\	-te-	.	.
.	.	.	8cc#X\J	.	.	.	.	.	.	.	.
=145	=145	=145	=145	=145	=145	=145	=145	=145	=145	=145	=145
4D\	.	.	8dd\L	4ff#\	.	4D\	-ram	4ff#\	-ra(m)	1ryy	1ryy
.	.	.	8a\J	.	.	.	.	.	.	.	.
8B\L	#	.	2b\	4dd#X\	.	(8B\L	qvi	4dd#X\	qvi	.	.
8A\J	.	.	.	.	.	8A\J)	.	.	.	.	.
4G\	6	.	.	4ee\	.	(4G\	se-	(4ee\	se-	.	.
!	!	!	!LO:LB:g=original	!	!	!	!	!	!	!	!
4F#\	6\	.	8cc#X\L	4ff#\	.	4F#\)	.	4ff#\)	.	.	.
.	.	.	8dd#X\J	.	.	.	.	.	.	.	.
!	!	!	!	!	!	!	!	!LO:LB:g=original	!	!	!
=146	=146	=146	=146	=146	=146	=146	=146	=146	=146	=146	=146
4E\	.	.	8ee\L	4gg\	.	4E\	-des	4gg\	-des	1ryy	1ryy
.	.	.	8b\J	.	.	.	.	.	.	.	.
8c\L	.	.	2ccn\	4ee\	.	(8c\L	ad	4ee\	ad	.	.
8B-X\J	.	.	.	.	.	8B-X\J)	.	.	.	.	.
4A\	n6	.	.	4ffn\	.	4A\	dex-	4ffn\	dex-	.	.
4G\	6 -	.	8dd\L	4gg\	.	4G\	-te-	4gg\	-te-	.	.
.	.	.	8ee\J	.	.	.	.	.	.	.	.
=147	=147	=147	=147	=147	=147	=147	=147	=147	=147	=147	=147
4Fn\	.	.	8ffn\L	4aa\	.	4Fn\	-ram	4aa\	-ram	1ryy	1ryy
.	.	.	8cc\J	.	.	.	.	.	.	.	.
8d\L	#	.	2dd\	4ff#X\	.	8d\L	ad	4ff#X\	ad	.	.
8c\J	.	.	.	.	.	8c\J	.	.	.	.	.
4Bn\	6	.	.	4gg\	.	4Bn\	dex-	4gg\	dex-	.	.
4A\	6\	.	8ee\L	4aa\	.	4A\	-te-	4aa\	-te-	.	.
.	.	.	8ff#X\J	.	.	.	.	.	.	.	.
!LO:LB:g=original	!	!	!	!	!	!	!	!	!	!	!
=148	=148	=148	=148	=148	=148	=148	=148	=148	=148	=148	=148
2G\	.	.	4gg\	2bb\	.	2G\	-ram	2dd\	-ram	1ryy	1ryy
.	.	.	4dd\	.	.	.	.	.	.	.	.
!LO:N:vis=4	!	!	!	!	!	!	!	!	!	!	!
[>2C/	6	.	2ee\	4aa\	.	[2c\	Pa-	4cc\	Pa-	.	.
.	.	.	.	4gg\	.	.	.	4b\	.	.	.
=149	=149	=149	=149	=149	=149	=149	=149	=149	=149	=149	=149
2C/]	4 2	.	2.dd\	4ff#\	.	2c\]	.	2a\	.	1ryy	1ryy
.	.	.	.	4dd\	.	.	.	.	.	.	.
4BB/	6	.	.	[2gg\	.	4B\	.	2b\	.	.	.
4C/	.	.	4ee\	.	.	4c\	.	.	.	.	.
=150	=150	=150	=150	=150	=150	=150	=150	=150	=150	=150	=150
2D/	4	.	2dd\	2gg\]	.	2d\	.	2a\	.	1ryy	1ryy
2D/	3	.	2a/	2ff#\	.	2D/	-tris	2a\	-tris	.	.
!	!	!	!	!	!	!LO:LB:g=original	!	!	!	!	!
=151	=151	=151	=151	=151	=151	=151	=151	=151	=151	=151	=151
!	!	!	!	!LO:TX:b:i:t=Adagio	!	!LO:TX:a:i:t=ad&colon;	!	!LO:TX:a:i:t=adagio	!	!	!
2r	.	.	2r	2r	.	2r	.	2r	.	1ryy	1ryy
!	!	!	!LO:TX:b:i:t=adagio	!	!	!	!	!	!	!	!
!LO:TX:b:i:t=Adagio	!	!	!	!	!	!	!	!	!	!	!
2C#X/	-7r_ 5_	.	4ee\|	4gg\|	.	4c#X\	Mi-	4b-X\	mi-	.	.
.	.	.	4ee\|	4gg\|	.	4c#\	-ſe-	4b-\	-se-	.	.
=152	=152	=152	=152	=152	=152	=152	=152	=152	=152	=152	=152
!LO:SIC:v:s=4C#/	!	!	!	!	!	!LO:SIC:v:s=2c#\	!	!	!	!	!
4C/	.	.	4ee\|	4gg\|	.	2c\	-re-	2b-y\	-re-	1ryy	1ryy
!LO:SIC:v:s=4C#/	!	!	!	!	!	!	!	!	!	!	!
4C/	.	.	4ee\|	4gg\|	.	.	.	.	.	.	.
!LO:SIC:v:s=4C#/	!	!	!	!	!	!LO:SIC:v:s=2c#\	!	!	!	!	!
4C/	.	.	4ee\|	4gg\|	.	2c\	-re	2b-\	-re	.	.
!LO:SIC:v:s=4C#/	!	!	!	!	!	!	!	!	!	!	!
4C/	.	.	4ee\|	4gg\|	.	.	.	.	.	.	.
=153	=153	=153	=153	=153	=153	=153	=153	=153	=153	=153	=153
[1D	5 3	.	[1dd	2ff#\	.	1d	no-	2a\	no-	1ryy	1ryy
.	n6 4	.	.	2gg\	.	.	.	2bn\	.	.	.
!	!	!	!LO:LB:g=original	!	!	!	!	!	!	!	!
=154	=154	=154	=154	=154	=154	=154	=154	=154	=154	=154	=154
1D_	7 5	.	1dd_	2cc\	.	[1D	.	2ff#\	.	1ryy	1ryy
.	6 4	.	.	2b\	.	.	.	[2gg\	.	.	.
!	!	!	!	!LO:LB:g=original	!	!	!	!	!	!	!
=155	=155	=155	=155	=155	=155	=155	=155	=155	=155	=155	=155
1D]	5 4	.	1dd]	1aT	.	1D]	.	4gg\]	.	1ryy	1ryy
.	.	.	.	.	.	.	.	8ff#\L	.	.	.
.	.	.	.	.	.	.	.	8ee\J	.	.	.
.	7 3	.	.	.	.	.	.	2ff#\	.	.	.
=156	=156	=156	=156	=156	=156	=156	=156	=156	=156	=156	=156
1GG	.	.	1dd	1g	.	1G	-bis	1gg	-bis	1ryy	1ryy
!	!	!	!	!LO:LB:g=original	!	!	!	!LO:LB:g=original	!	!	!
=157||	=157||	=157||	=157||	=157||	=157||	=157||	=157||	=157||	=157||	=157||	=157||
!!!key: D
*k[f#c#]	*	*	*	*k[f#c#]	*	*k[f#c#]	*	*	*	*	*
*M2/4	*	*	*	*M2/4	*	*M2/4	*	*	*	*	*
!LO:TX:b:i:t=Qvoniam.	!	!	!	!LO:TX:t=P:problem=część Qvoniam dopisana na kolejnej stronie	!	!	!	!	!	!	!
!LO:TX:a:i:t=Allo Tut.	!	!	!LO:TX:a:i:t=Qvoniam Tacet.	!LO:TX:a:i:t=Qvoniam Tacet.	!	!LO:TX:a:i:t=allo Sol&colon;	!	!LO:TX:a:t=Qvoniam Tacet.	!	!	!
8.d\L	.	.	2ryy	8.dd\L	.	1r	.	2ryy	.	2ryy	2ryy
16d\K	.	.	.	16dd\K	.	.	.	.	.	.	.
8d\	.	.	.	8dd\	.	.	.	.	.	.	.
8A\J	.	.	.	8a\J	.	.	.	.	.	.	.
=158	=158	=158	=158	=158	=158	=158	=158	=158	=158	=158	=158
4B\|	.	.	2ryy	4b\	.	.	.	2ryy	.	2ryy	2ryy
4F#\|	6	.	.	4f#/	.	.	.	.	.	.	.
=159	=159	=159	=159	=159	=159	=159	=159	=159	=159	=159	=159
8G\L	6 5	.	2ryy	8g/L	.	2r	.	2ryy	.	2ryy	2ryy
8E\J	.	.	.	8e/J	.	.	.	.	.	.	.
8A\L	.	.	.	8a/L	.	.	.	.	.	.	.
8G\J	.	.	.	8g/J	.	.	.	.	.	.	.
=160	=160	=160	=160	=160	=160	=160	=160	=160	=160	=160	=160
8F#\L	6	.	2ryy	8f#/L	.	8.d\	Qvo-	2ryy	.	2ryy	2ryy
8D\J	.	.	.	8d/J	.	.	.	.	.	.	.
.	.	.	.	.	.	16d\	-ni-	.	.	.	.
4r	.	.	.	4r	.	8d\	-am	.	.	.	.
.	.	.	.	.	.	8A\	tu	.	.	.	.
=161	=161	=161	=161	=161	=161	=161	=161	=161	=161	=161	=161
8.D/L	6 4	.	2ryy	8.d/L	.	4B\	so-	2ryy	.	2ryy	2ryy
16D/Jk	.	.	.	16d/Jk	.	.	.	.	.	.	.
8D/L	5 3_	.	.	8d/L	.	4F#\	-lus	.	.	.	.
8AA/J	.	.	.	8A/J	.	.	.	.	.	.	.
=162	=162	=162	=162	=162	=162	=162	=162	=162	=162	=162	=162
4BB/	6	.	2ryy	4B/	.	8G\L	tu	2ryy	.	2ryy	2ryy
.	.	.	.	.	.	8E\J	.	.	.	.	.
4C#/	6 5_	.	.	4c#/	.	8A\	so-	.	.	.	.
.	.	.	.	.	.	8G\	-lus	.	.	.	.
!LO:LB:g=original	!	!	!	!	!	!	!	!	!	!	!
=163	=163	=163	=163	=163	=163	=163	=163	=163	=163	=163	=163
4D/	x	.	2ryy	4d/	.	8F#\	ſan-	2ryy	.	2ryy	2ryy
.	.	.	.	.	.	8D\	-ctus	.	.	.	.
4C#/	6	.	.	4c#/	.	8r	.	.	.	.	.
.	.	.	.	.	.	8E\	tu	.	.	.	.
!	!	!	!	!	!	!LO:LB:g=original	!	!	!	!	!
=164	=164	=164	=164	=164	=164	=164	=164	=164	=164	=164	=164
8.D/L	.	.	2ryy	8.d/L	.	4F#\	so-	2ryy	.	2ryy	2ryy
16D/Jk	.	.	.	16d/Jk	.	.	.	.	.	.	.
8D/L	+4r	.	.	8d/L	.	4G#X\	-lus	.	.	.	.
8BB/J	.	.	.	8B/J	.	.	.	.	.	.	.
=165	=165	=165	=165	=165	=165	=165	=165	=165	=165	=165	=165
4C#/	6	.	2ryy	4c#/	.	8.A\	Do-	2ryy	.	2ryy	2ryy
.	.	.	.	.	.	16A\	-mi-	.	.	.	.
4AA/	.	.	.	4A/	.	8A\	-nus	.	.	.	.
.	.	.	.	.	.	8E\	tu	.	.	.	.
=166	=166	=166	=166	=166	=166	=166	=166	=166	=166	=166	=166
8.D/L	.	.	2ryy	8.d/L	.	4F#\	so-	2ryy	.	2ryy	2ryy
16D/Jk	.	.	.	16d/Jk	.	.	.	.	.	.	.
8D/L	+4r	.	.	8d/L	.	8G#X\	-lus	.	.	.	.
8BB/J	.	.	.	8B/J	.	8G#\	al-	.	.	.	.
=167	=167	=167	=167	=167	=167	=167	=167	=167	=167	=167	=167
8C#/L	6	.	2ryy	8c#/L	.	8.A\	-tiſ-	2ryy	.	2ryy	2ryy
8BB/	.	.	.	8B/	.	.	.	.	.	.	.
.	.	.	.	.	.	16A\	-si-	.	.	.	.
8C#/	.	.	.	8c#/	.	4A\	-mus	.	.	.	.
8AA/J	.	.	.	8A/J	.	.	.	.	.	.	.
=168	=168	=168	=168	=168	=168	=168	=168	=168	=168	=168	=168
8BB/	.	.	2ryy	8B/	.	[2d\	Je-	2ryy	.	2ryy	2ryy
4B\	.	.	.	4b\	.	.	.	.	.	.	.
8A\	.	.	.	8a\	.	.	.	.	.	.	.
!	!	!	!	!LO:LB:g=original	!	!	!	!	!	!	!
=169	=169	=169	=169	=169	=169	=169	=169	=169	=169	=169	=169
4G#X\	6 5	.	2ryy	4g#/	.	8d\L]	.	2ryy	.	2ryy	2ryy
.	.	.	.	.	.	8B\	.	.	.	.	.
8A\L	.	.	.	8a/L	.	8c#\	.	.	.	.	.
8E\J	#	.	.	8e/J	.	8G#X\J	.	.	.	.	.
=170	=170	=170	=170	=170	=170	=170	=170	=170	=170	=170	=170
!LO:TX:t=P:problem=mixed beam	!	!	!	!	!	!	!	!	!	!	!
8F#\L	.	.	2ryy	8f#/L	.	8A\	.	2ryy	.	2ryy	2ryy
8D\	.	.	.	8d/	.	8D\	-su	.	.	.	.
8E\	#	.	.	8e/	.	4ET\	Chri-	.	.	.	.
8EE/J	.	.	.	8e/J	.	.	.	.	.	.	.
=171	=171	=171	=171	=171	=171	=171	=171	=171	=171	=171	=171
8.A\L	.	.	2ryy	8.a/L	.	4AA/	-ste	2ryy	.	2ryy	2ryy
16A\Jk	.	.	.	16a/K	.	.	.	.	.	.	.
8A\L	.	.	.	8a/	.	4r	.	.	.	.	.
8E\J	#	.	.	8e/J	.	.	.	.	.	.	.
=172	=172	=172	=172	=172	=172	=172	=172	=172	=172	=172	=172
4F#\|	.	.	2ryy	4f#/|	.	1r	.	2ryy	.	2ryy	2ryy
4C#/	6	.	.	4c#/	.	.	.	.	.	.	.
=173	=173	=173	=173	=173	=173	=173	=173	=173	=173	=173	=173
8D/L	6 5	.	2ryy	8d/L	.	.	.	2ryy	.	2ryy	2ryy
8BB/J	.	.	.	8B/	.	.	.	.	.	.	.
8E\L	#	.	.	8e/	.	.	.	.	.	.	.
8D\J	.	.	.	8d/J	.	.	.	.	.	.	.
=174	=174	=174	=174	=174	=174	=174	=174	=174	=174	=174	=174
8C#/L	6	.	2ryy	8c#/L	.	8.A\	Qvo-	2ryy	.	2ryy	2ryy
8AA/J	.	.	.	8A/J	.	.	.	.	.	.	.
.	.	.	.	.	.	16A\	-ni-	.	.	.	.
4r	.	.	.	4r	.	8A\	-am	.	.	.	.
.	.	.	.	.	.	8E\	tu	.	.	.	.
=175	=175	=175	=175	=175	=175	=175	=175	=175	=175	=175	=175
8.A\L	6 4	.	2ryy	8.a/L	.	4F#\	so-	2ryy	.	2ryy	2ryy
16A\Jk	.	.	.	16a/Jk	.	.	.	.	.	.	.
8A\L	5_ 3_	.	.	8a/L	.	4C#/	-lus	.	.	.	.
8E\J	.	.	.	8e/J	.	.	.	.	.	.	.
=176	=176	=176	=176	=176	=176	=176	=176	=176	=176	=176	=176
4F#\	6	.	2ryy	4f#/	.	(8D/L	tu	2ryy	.	2ryy	2ryy
.	.	.	.	.	.	8BB/J)	.	.	.	.	.
4G#X\	6 5	.	.	4g#X/	.	8E\	so-	.	.	.	.
.	.	.	.	.	.	8D\	-lus	.	.	.	.
!LO:LB:g=original	!	!	!	!	!	!LO:LB:g=original	!	!	!	!	!
=177	=177	=177	=177	=177	=177	=177	=177	=177	=177	=177	=177
8A\L	.	.	2ryy	8a/L	.	8C#/	ſan-	2ryy	.	2ryy	2ryy
8Gn\	.	.	.	8gn/	.	8AA/	-ctus	.	.	.	.
8F#\	6	.	.	8f#/	.	4r	.	.	.	.	.
8E\J	6	.	.	8e/J	.	.	.	.	.	.	.
=178	=178	=178	=178	=178	=178	=178	=178	=178	=178	=178	=178
4D\	.	.	2ryy	4d/	.	8.d\	Qvo-	2ryy	.	2ryy	2ryy
.	.	.	.	.	.	16d\	-ni-	.	.	.	.
4r	.	.	.	4r	.	8d\	-am	.	.	.	.
.	.	.	.	.	.	8A\	tu	.	.	.	.
=179	=179	=179	=179	=179	=179	=179	=179	=179	=179	=179	=179
8.D/L	6 4	.	2ryy	8.d/L	.	4B\	so-	2ryy	.	2ryy	2ryy
16D/Jk	.	.	.	16d/K	.	.	.	.	.	.	.
8D/L	5_ 3_	.	.	8d/	.	4F#\	-lus	.	.	.	.
8AA/J	.	.	.	8A/J	.	.	.	.	.	.	.
=180	=180	=180	=180	=180	=180	=180	=180	=180	=180	=180	=180
4BB/	6	.	2ryy	4B/	.	(8G\L	tu	2ryy	.	2ryy	2ryy
.	.	.	.	.	.	8E\J)	.	.	.	.	.
4C#/	6 5	.	.	4c#/	.	8A\	so-	.	.	.	.
.	.	.	.	.	.	8G\	-lus	.	.	.	.
!	!	!	!	!LO:LB:g=original	!	!	!	!	!	!	!
=181	=181	=181	=181	=181	=181	=181	=181	=181	=181	=181	=181
8D\L	.	.	2ryy	8d/L	.	8F#\	ſan-	2ryy	.	2ryy	2ryy
8E\	.	.	.	8e/	.	8D\	-ctus	.	.	.	.
8F#\	6	.	.	8f#/	.	8r	.	.	.	.	.
8D\J	.	.	.	8d/J	.	8A\	tu	.	.	.	.
=182	=182	=182	=182	=182	=182	=182	=182	=182	=182	=182	=182
8.G\L	.	.	2ryy	8.g/L	.	[2B\	so-	2ryy	.	2ryy	2ryy
16G\Jk	.	.	.	16g/K	.	.	.	.	.	.	.
8G\L	.	.	.	8g/	.	.	.	.	.	.	.
8D\J	6	.	.	8d/J	.	.	.	.	.	.	.
=183	=183	=183	=183	=183	=183	=183	=183	=183	=183	=183	=183
!	!	!	!	!	!	!LO:TX:t=P:problem=mixed beam	!	!	!	!	!
2E\	6 5	.	2ryy	2e/	.	8B\L]	.	2ryy	.	2ryy	2ryy
.	.	.	.	.	.	16C#/L	.	.	.	.	.
.	.	.	.	.	.	16E/JJ	.	.	.	.	.
.	.	.	.	.	.	16G\LL	.	.	.	.	.
.	.	.	.	.	.	16B\	.	.	.	.	.
.	.	.	.	.	.	16A\	.	.	.	.	.
.	.	.	.	.	.	16G\JJ	.	.	.	.	.
=184	=184	=184	=184	=184	=184	=184	=184	=184	=184	=184	=184
8.F#\L	.	.	2ryy	8.f#/L	.	[2A\	.	2ryy	.	2ryy	2ryy
16F#\Jk	.	.	.	16f#/K	.	.	.	.	.	.	.
8F#\L	.	.	.	8f#/	.	.	.	.	.	.	.
8C#\J	6	.	.	8c#/J	.	.	.	.	.	.	.
=185	=185	=185	=185	=185	=185	=185	=185	=185	=185	=185	=185
!	!	!	!	!	!	!LO:TX:t=P:problem=mixed beam	!	!	!	!	!
2D\	6 5	.	2ryy	2d/	.	8A\L]	.	2ryy	.	2ryy	2ryy
.	.	.	.	.	.	16BB/L	.	.	.	.	.
.	.	.	.	.	.	16D/JJ	.	.	.	.	.
.	.	.	.	.	.	16F#\LL	.	.	.	.	.
.	.	.	.	.	.	16A\	.	.	.	.	.
.	.	.	.	.	.	16G\	.	.	.	.	.
.	.	.	.	.	.	16F#\JJ	.	.	.	.	.
=186	=186	=186	=186	=186	=186	=186	=186	=186	=186	=186	=186
8.E\L	.	.	2ryy	8.e/L	.	2G\	.	2ryy	.	2ryy	2ryy
16E\Jk	.	.	.	16e/K	.	.	.	.	.	.	.
8E\L	.	.	.	8e/	.	.	.	.	.	.	.
8BB\J	6	.	.	8B/J	.	.	.	.	.	.	.
=187	=187	=187	=187	=187	=187	=187	=187	=187	=187	=187	=187
!	!	!	!	!	!	!LO:TX:t=P:problem=mixed beam	!	!	!	!	!
2C#/	6 5	.	2ryy	2c#/	.	8G\L	.	2ryy	.	2ryy	2ryy
.	.	.	.	.	.	16AA/L	.	.	.	.	.
.	.	.	.	.	.	16C#/JJ	.	.	.	.	.
.	.	.	.	.	.	16E\LL	.	.	.	.	.
.	.	.	.	.	.	16G\	.	.	.	.	.
.	.	.	.	.	.	16F#\	.	.	.	.	.
.	.	.	.	.	.	16E\JJ	.	.	.	.	.
!	!	!	!	!	!	!LO:LB:g=original	!	!	!	!	!
=188	=188	=188	=188	=188	=188	=188	=188	=188	=188	=188	=188
4D\	.	.	2ryy	4d/	.	8F#\	-lus	2ryy	.	2ryy	2ryy
.	.	.	.	.	.	8DD/	al-	.	.	.	.
8r	.	.	.	8r	.	8EE/	-tiſ-	.	.	.	.
8E\	6	.	.	8e/	.	8G\	-si-	.	.	.	.
=189	=189	=189	=189	=189	=189	=189	=189	=189	=189	=189	=189
4F#\	6	.	2ryy	4f#/	.	8A\	-mus	2ryy	.	2ryy	2ryy
!	!	!	!	!	!	!LO:TX:t=P:problem=mixed beam	!	!	!	!	!
.	.	.	.	.	.	(>8FF#/L	Je-	.	.	.	.
8r	.	.	.	8r	.	8GG/)	.	.	.	.	.
8G\	.	.	.	8g/	.	8B\J|	.	.	.	.	.
=190	=190	=190	=190	=190	=190	=190	=190	=190	=190	=190	=190
8A\L	.	.	2ryy	8a/L	.	8c#\L	.	2ryy	.	2ryy	2ryy
8G\	.	.	.	8g/	.	16B\L	.	.	.	.	.
.	.	.	.	.	.	16A\JJ	.	.	.	.	.
8F#\	6	.	.	8f#/	.	8d\L	.	.	.	.	.
8G\J	.	.	.	8g/J	.	8G\J	-su	.	.	.	.
!LO:LB:g=original	!	!	!	!	!	!	!	!	!	!	!
=191	=191	=191	=191	=191	=191	=191	=191	=191	=191	=191	=191
.	.	.	.	.	.	8qqF#/	.	.	.	.	.
!LO:TX:t=P:problem=mixed beam	!	!	!	!	!	!	!	!	!	!	!
8A\L	4	.	2ryy	8a/L	.	2ET\	X-	2ryy	.	2ryy	2ryy
8G\	.	.	.	8g/	.	.	.	.	.	.	.
8A\	3	.	.	8a/	.	.	.	.	.	.	.
8AA/J	.	.	.	8A/J	.	.	.	.	.	.	.
=192	=192	=192	=192	=192	=192	=192	=192	=192	=192	=192	=192
4D\	.	.	2ryy	4d/	.	4D\	-te	2ryy	.	2ryy	2ryy
4F#\	6	.	.	4f#/	.	8r	.	.	.	.	.
.	.	.	.	.	.	8A\	tu	.	.	.	.
!	!	!	!	!LO:LB:g=original	!	!	!	!	!	!	!
=193	=193	=193	=193	=193	=193	=193	=193	=193	=193	=193	=193
8.G\L	.	.	2ryy	8.g/L	.	4B\	so-	2ryy	.	2ryy	2ryy
16G\Jk	.	.	.	16g/K	.	.	.	.	.	.	.
8G\L	4	.	.	8g/	.	4c#\	-lus	.	.	.	.
8E\J	.	.	.	8e/J	.	.	.	.	.	.	.
=194	=194	=194	=194	=194	=194	=194	=194	=194	=194	=194	=194
4F#\	6	.	2ryy	4f#/	.	8.d\	Do-	2ryy	.	2ryy	2ryy
.	.	.	.	.	.	16d\	-mi-	.	.	.	.
4D\	.	.	.	4d/	.	8d\	-nus	.	.	.	.
.	.	.	.	.	.	8A\	tu	.	.	.	.
=195	=195	=195	=195	=195	=195	=195	=195	=195	=195	=195	=195
8.G\L	.	.	2ryy	8.g/L	.	4B\	so-	2ryy	.	2ryy	2ryy
16G\Jk	.	.	.	16g/K	.	.	.	.	.	.	.
8G\L	4	.	.	8g/	.	8c#\	-lus	.	.	.	.
8E\J	.	.	.	8e/J	.	8c#\	al-	.	.	.	.
=196	=196	=196	=196	=196	=196	=196	=196	=196	=196	=196	=196
8F#\L	6	.	2ryy	8f#/L	.	8.d\	-tiſ-	2ryy	.	2ryy	2ryy
8E\	.	.	.	8e/	.	.	.	.	.	.	.
.	.	.	.	.	.	16d\	-si-	.	.	.	.
8F#\	.	.	.	8f#/	.	4d\	-mus	.	.	.	.
8D\J	.	.	.	8d/J	.	.	.	.	.	.	.
=197	=197	=197	=197	=197	=197	=197	=197	=197	=197	=197	=197
8EE/	.	.	2ryy	8e/	.	[2G\	Je-	2ryy	.	2ryy	2ryy
4E\	.	.	.	4e/	.	.	.	.	.	.	.
8D\	.	.	.	8d/	.	.	.	.	.	.	.
=198	=198	=198	=198	=198	=198	=198	=198	=198	=198	=198	=198
4C#/	6 5	.	2ryy	4c#/	.	8G\L]	.	2ryy	.	2ryy	2ryy
.	.	.	.	.	.	8E\	.	.	.	.	.
8D/L	.	.	.	8d/L	.	8F#\	.	.	.	.	.
8AA/J	.	.	.	8A/J	.	8C#\J	.	.	.	.	.
=199	=199	=199	=199	=199	=199	=199	=199	=199	=199	=199	=199
!	!	!	!	!LO:TX:t=P:problem=mixed beam	!	!	!	!	!	!	!
8BB/L	.	.	2ryy	8B/L	.	8D/	.	2ryy	.	2ryy	2ryy
8GG/J	.	.	.	8G/	.	8GG/	-su	.	.	.	.
!LO:TX:t=P:problem=mixed beam	!	!	!	!	!	!	!	!	!	!	!
8AA/L	.	.	.	8A/	.	4AA/	X-	.	.	.	.
8A\J	.	.	.	8a\J	.	.	.	.	.	.	.
=200	=200	=200	=200	=200	=200	=200	=200	=200	=200	=200	=200
8.d\L	.	.	2ryy	8.dd\L	.	4D\	-ste.	2ryy	.	2ryy	2ryy
16d\Jk	.	.	.	16dd\K	.	.	.	.	.	.	.
8d\L	.	.	.	8dd\	.	4r	.	.	.	.	.
8A\J	.	.	.	8a\J	.	.	.	.	.	.	.
=201	=201	=201	=201	=201	=201	=201	=201	=201	=201	=201	=201
!	!	!	!	!	!	!LO:TX:a:t=14	!	!	!	!	!
4B|\	.	.	2ryy	4b/	.	0r	.	2ryy	.	2ryy	2ryy
4G\|	6	.	.	4f#/	.	.	.	.	.	.	.
=202	=202	=202	=202	=202	=202	=202	=202	=202	=202	=202	=202
8G\L	6 5	.	2ryy	8g/L	.	.	.	2ryy	.	2ryy	2ryy
8E\J	.	.	.	8e/	.	.	.	.	.	.	.
8A\L	.	.	.	8a/	.	.	.	.	.	.	.
8G\J	.	.	.	8g/J	.	.	.	.	.	.	.
=203	=203	=203	=203	=203	=203	=203	=203	=203	=203	=203	=203
8F#\L	6	.	2ryy	8f#/L	.	.	.	2ryy	.	2ryy	2ryy
8D\J	.	.	.	8d/J	.	.	.	.	.	.	.
8r	.	.	.	8r	.	.	.	.	.	.	.
8A\	.	.	.	8a/	.	.	.	.	.	.	.
!LO:LB:g=original	!	!	!	!LO:LB:g=original	!	!	!	!	!	!	!
=204	=204	=204	=204	=204	=204	=204	=204	=204	=204	=204	=204
8.B\L	6	.	2ryy	8.b/L	.	.	.	2ryy	.	2ryy	2ryy
16B\Jk	.	.	.	16b/K	.	.	.	.	.	.	.
8B\L	.	.	.	8b/	.	.	.	.	.	.	.
8B\J	.	.	.	8b/J	.	.	.	.	.	.	.
=205	=205	=205	=205	=205	=205	=205	=205	=205	=205	=205	=205
!LO:TX:t=P:problem=mixed beam	!	!	!	!	!	!	!	!	!	!	!
8B\L	4 2	.	2ryy	8b/L	.	0r	.	2ryy	.	2ryy	2ryy
16C#/L	.	.	.	16c#/L	.	.	.	.	.	.	.
16E/JJ	.	.	.	16e/JJ	.	.	.	.	.	.	.
16G\LL	.	.	.	16g/LL	.	.	.	.	.	.	.
16B\	.	.	.	16b/	.	.	.	.	.	.	.
16A\	.	.	.	16a/	.	.	.	.	.	.	.
16G\JJ	.	.	.	16g/JJ	.	.	.	.	.	.	.
=206	=206	=206	=206	=206	=206	=206	=206	=206	=206	=206	=206
8.A\L	6	.	2ryy	8.a/L	.	.	.	2ryy	.	2ryy	2ryy
16A\Jk	.	.	.	16a/K	.	.	.	.	.	.	.
8A\L	.	.	.	8a/	.	.	.	.	.	.	.
8A\J	.	.	.	8a/J	.	.	.	.	.	.	.
=207	=207	=207	=207	=207	=207	=207	=207	=207	=207	=207	=207
!LO:TX:t=P:problem=mixed beam	!	!	!	!	!	!	!	!	!	!	!
8A\L	4 2	.	2ryy	8a/L	.	.	.	2ryy	.	2ryy	2ryy
16BB/L	.	.	.	16B/L	.	.	.	.	.	.	.
16D/JJ	.	.	.	16d/JJ	.	.	.	.	.	.	.
16F#\LL	.	.	.	16f#/LL	.	.	.	.	.	.	.
16A\	.	.	.	16a/	.	.	.	.	.	.	.
16G\	.	.	.	16g/	.	.	.	.	.	.	.
16F#\JJ	.	.	.	16f#/JJ	.	.	.	.	.	.	.
=208	=208	=208	=208	=208	=208	=208	=208	=208	=208	=208	=208
8.G\L	6	.	2ryy	8.g/L	.	.	.	2ryy	.	2ryy	2ryy
16G\Jk	.	.	.	16g/K	.	.	.	.	.	.	.
8G\L	.	.	.	8g/	.	.	.	.	.	.	.
8G\J	.	.	.	8g/J	.	.	.	.	.	.	.
=209	=209	=209	=209	=209	=209	=209	=209	=209	=209	=209	=209
!LO:TX:t=P:problem=mixed beam	!	!	!	!	!	!	!	!	!	!	!
8G\L	4 2	.	2ryy	8g/L	.	0r	.	2ryy	.	2ryy	2ryy
16AA/L	.	.	.	16A/L	.	.	.	.	.	.	.
16C#/JJ	.	.	.	16c#/JJ	.	.	.	.	.	.	.
16E\LL	.	.	.	16e/LL	.	.	.	.	.	.	.
16G\	.	.	.	16g/	.	.	.	.	.	.	.
16F#\	.	.	.	16f#/	.	.	.	.	.	.	.
16E\JJ	.	.	.	16e/JJ	.	.	.	.	.	.	.
=210	=210	=210	=210	=210	=210	=210	=210	=210	=210	=210	=210
8F#\L	6	.	2ryy	8f#/L	.	.	.	2ryy	.	2ryy	2ryy
16E\L	.	.	.	16e/L	.	.	.	.	.	.	.
16D\JJ	.	.	.	16d/JJ	.	.	.	.	.	.	.
8E\L	.	.	.	8e/L	.	.	.	.	.	.	.
8G\J	.	.	.	8g/J	.	.	.	.	.	.	.
=211	=211	=211	=211	=211	=211	=211	=211	=211	=211	=211	=211
8A\L	6	.	2ryy	8a/L	.	.	.	2ryy	.	2ryy	2ryy
16G\L	.	.	.	16g/L	.	.	.	.	.	.	.
16F#\JJ	.	.	.	16f#/JJ	.	.	.	.	.	.	.
8G\L	.	.	.	8g/L	.	.	.	.	.	.	.
8B\J	.	.	.	8b/J	.	.	.	.	.	.	.
!	!	!	!	!LO:LB:g=original	!	!	!	!	!	!	!
=212	=212	=212	=212	=212	=212	=212	=212	=212	=212	=212	=212
8c#\L	6	.	2ryy	8cc#\L	.	.	.	2ryy	.	2ryy	2ryy
16B\L	.	.	.	16b\L	.	.	.	.	.	.	.
16A\JJ	.	.	.	16a\JJ	.	.	.	.	.	.	.
8d\L	.	.	.	8dd\L	.	.	.	.	.	.	.
8G\J	.	.	.	8g\J	.	.	.	.	.	.	.
=213	=213	=213	=213	=213	=213	=213	=213	=213	=213	=213	=213
4A\|	6 4	.	2ryy	4a/|	.	1r	.	2ryy	.	2ryy	2ryy
4AA/|	7 3	.	.	4A/|	.	.	.	.	.	.	.
=214	=214	=214	=214	=214	=214	=214	=214	=214	=214	=214	=214
4D\	.	.	2ryy	4d/	.	.	.	2ryy	.	2ryy	2ryy
4r	.	.	.	4r	.	.	.	.	.	.	.
!LO:LB:g=original	!	!	!LO:LB:g=original	!LO:LB:g=original	!	!LO:PB:g=original	!	!	!	!	!
=215||	=215||	=215||	=215||	=215||	=215||	=215||	=215||	=215||	=215||	=215||	=215||
*	*	*	*k[f#c#]	*	*	*	*	*k[f#c#]	*	*k[f#c#]	*k[f#c#]
*M2/2	*	*	*M2/2	*M2/2	*	*M2/2	*	*M2/2	*	*M2/2	*M2/2
*met(c|)	*	*	*met(c|)	*met(c|)	*	*met(c|)	*	*met(c|)	*	*met(c|)	*met(c|)
!	!	!	!	!	!	!	!	!	!	!LO:TX:b:i:t=Cum Sancto.	!LO:TX:b:i:t=Cum sancto.
!	!	!	!LO:TX:b:i:t=Cum Sancto.	!LO:TX:b:i:t=Cum Sancto.	!	!	!	!	!	!LO:TX:a:t=18	!LO:TX:a:t=17
!LO:TX:b:i:t=Cum Sancto	!	!	!LO:TX:a:i:t=allo&colon;	!LO:TX:a:i:t=Allo&colon; aſsai.	!	!LO:TX:a:i:t=allo aſsai	!	!	!	!LO:TX:a:t=allo&colon;	!LO:TX:a:t=allo&colon;
1D	.	.	00r	00r	.	1D	Cum	00r	.	00r	00r
=216	=216	=216	=216	=216	=216	=216	=216	=216	=216	=216	=216
2F#\|	.	.	.	.	.	2F#\	San-	.	.	.	.
2G#X\|	.	.	.	.	.	2G#X\	-cto	.	.	.	.
=217	=217	=217	=217	=217	=217	=217	=217	=217	=217	=217	=217
4.A\	.	.	.	.	.	4.A\	Spi-	.	.	.	.
8A\	.	.	.	.	.	8A\	-ri-	.	.	.	.
2A\	.	.	.	.	.	2A\	-tu	.	.	.	.
=218	=218	=218	=218	=218	=218	=218	=218	=218	=218	=218	=218
4r	.	.	.	.	.	4r	.	.	.	.	.
4B\	.	.	.	.	.	4B\	in	.	.	.	.
4B\	.	.	.	.	.	4B\	glo-	.	.	.	.
8A\L	.	.	.	.	.	8A\	-ri-	.	.	.	.
8Gn\J	.	.	.	.	.	8Gn\	-a	.	.	.	.
=219	=219	=219	=219	=219	=219	=219	=219	=219	=219	=219	=219
4A\	.	.	00r	00r	.	4A\	De-	00r	.	00r	00r
4G\	.	.	.	.	.	4G\	-i	.	.	.	.
4A\	.	.	.	.	.	4A\	Pa-	.	.	.	.
4F#\	.	.	.	.	.	4F#\	-tris	.	.	.	.
=220	=220	=220	=220	=220	=220	=220	=220	=220	=220	=220	=220
4r	.	.	.	.	.	4r	.	.	.	.	.
4G\	.	.	.	.	.	4G\	in	.	.	.	.
4G\	.	.	.	.	.	4G\	glo-	.	.	.	.
8F#\L	.	.	.	.	.	8F#\	-ri-	.	.	.	.
8E\J	.	.	.	.	.	8E\	-a	.	.	.	.
=221	=221	=221	=221	=221	=221	=221	=221	=221	=221	=221	=221
4F#\	.	.	.	.	.	4F#\	De-	.	.	.	.
4E\	.	.	.	.	.	4E\	-i	.	.	.	.
4F#\	.	.	.	.	.	4F#\	Pa-	.	.	.	.
4D\	.	.	.	.	.	4D\	-tris	.	.	.	.
=222	=222	=222	=222	=222	=222	=222	=222	=222	=222	=222	=222
1ET	.	.	.	.	.	1ET	a-	.	.	.	.
=223	=223	=223	=223	=223	=223	=223	=223	=223	=223	=223	=223
4D\	.	.	1a	00r	.	4D\	-men	1a	Cum	00r	00r
8F#\L	.	.	.	.	.	8F#\L	a-	.	.	.	.
8E\J	.	.	.	.	.	8E\J	.	.	.	.	.
4F#\	6	.	.	.	.	4F#\	.	.	.	.	.
8E\L	.	.	.	.	.	8E\L	.	.	.	.	.
8D\J	.	.	.	.	.	8D\J	.	.	.	.	.
!	!	!	!	!	!	!LO:LB:g=original	!	!	!	!	!
=224	=224	=224	=224	=224	=224	=224	=224	=224	=224	=224	=224
2.A\	3	.	2cc#\	.	.	2.A\	-men	2cc#\	ſan-	.	.
.	+4r 2	.	2dd#X\	.	.	.	.	2dd#X\	-cto	.	.
4A\	.	.	.	.	.	4A\	a-	.	.	.	.
=225	=225	=225	=225	=225	=225	=225	=225	=225	=225	=225	=225
4G#X\	6	.	4.ee\	.	.	4G#X\	.	4.ee\	ſpi-	.	.
4F#\	.	.	.	.	.	4F#\	.	.	.	.	.
.	.	.	8ee\	.	.	.	.	8ee\	-ri-	.	.
4G#\	.	.	2ee\	.	.	4G#\	.	2ee\	-tu	.	.
4E\	.	.	.	.	.	4E\	.	.	.	.	.
=226	=226	=226	=226	=226	=226	=226	=226	=226	=226	=226	=226
2D\	5	.	4r	.	.	2D\	-men	4r	.	.	.
.	.	.	4ff#\	.	.	.	.	4ff#\	in	.	.
[2d\|	.	.	4ff#\	.	.	[2d\	a-	4ff#\	glo-	.	.
.	.	.	8ee\L	.	.	.	.	8ee\	-ri-	.	.
.	.	.	8ddn\J	.	.	.	.	8ddn\	-a	.	.
=227	=227	=227	=227	=227	=227	=227	=227	=227	=227	=227	=227
2d\]	+4r 2	.	4ee\	00r	.	2d\]	.	4ee\	De-	00r	00r
.	.	.	4dd\	.	.	.	.	4dd\	-i	.	.
[2c#\	6	.	4ee\	.	.	[2c#\	.	4ee\	Pa-	.	.
.	.	.	4cc#\	.	.	.	.	4cc#\	-tris	.	.
=228	=228	=228	=228	=228	=228	=228	=228	=228	=228	=228	=228
2c#\]	4 2	.	4r	.	.	2c#\]	.	4r	.	.	.
.	.	.	4dd\	.	.	.	.	4dd\	in	.	.
[2B\	6\	.	4dd\	.	.	[2B\	.	4dd\	glo-	.	.
.	.	.	8cc#\L	.	.	.	.	8cc#\	-ri-	.	.
.	.	.	8b\J	.	.	.	.	8b\	-a	.	.
=229	=229	=229	=229	=229	=229	=229	=229	=229	=229	=229	=229
2B\]	2	.	4cc#\	.	.	2B\]	.	4cc#\	De-	.	.
.	.	.	4b\	.	.	.	.	4b\	-i	.	.
[2A\	6	.	4cc#\	.	.	[2A\	.	4cc#\	Pa-	.	.
.	.	.	4a/	.	.	.	.	4a\	-tris	.	.
=230	=230	=230	=230	=230	=230	=230	=230	=230	=230	=230	=230
2A\]	2	.	1bT	.	.	2A\]	.	1bT	a-	.	.
2G#X\	6	.	.	.	.	2G#X\	.	.	.	.	.
!LO:LB:g=original	!	!	!	!	!	!	!	!	!	!	!
=231	=231	=231	=231	=231	=231	=231	=231	=231	=231	=231	=231
2A\	.	.	4a/	1r	.	2A\	-men	4a\	-men	0r	1r
.	.	.	8cc#\L	.	.	.	.	8cc#\L	a-	.	.
.	.	.	8b\J	.	.	.	.	8b\J	.	.	.
2Gn\	2	.	4cc#\	.	.	2Gn\	a-	4cc#\	.	.	.
.	.	.	8b\L	.	.	.	.	8b\L	.	.	.
.	.	.	8a\J	.	.	.	.	8a\J	.	.	.
!	!	!	!LO:LB:g=original	!	!	!	!	!LO:LB:g=original	!	!	!
=232	=232	=232	=232	=232	=232	=232	=232	=232	=232	=232	=232
4F#\|	6	.	2dd\	1dd	.	4F#\	.	2dd\	-men	.	1dd
4D\|	.	.	.	.	.	4D\	.	.	.	.	.
4F#\|	.	.	2r	.	.	4F#\	.	2r	.	.	.
4A\|	.	.	.	.	.	4A\	.	.	.	.	.
=233	=233	=233	=233	=233	=233	=233	=233	=233	=233	=233	=233
2.d\	3	.	2dd\	2ff#\	.	2.d\	-men	(2a\	a-	2dd\	2ff#\
.	+4r 2	.	[2ee\	2gg#X\	.	.	.	2b\)	.	2ee\	2gg#X\
4d\	.	.	.	.	.	4d\	a-	.	.	.	.
=234	=234	=234	=234	=234	=234	=234	=234	=234	=234	=234	=234
4c#\	6	.	4ee\]	4.aa\	.	4c#\	.	2a\	-men	2a/	4.aa\
4B\	.	.	4dd\	.	.	4B\	.	.	.	.	.
.	.	.	.	8aa\	.	.	.	.	.	.	8aa\
4c#\	.	.	4ee\	2aa\	.	4c#\	.	2r	.	2r	2aa\
4A\	.	.	4cc#\	.	.	4A\	-men	.	.	.	.
=235	=235	=235	=235	=235	=235	=235	=235	=235	=235	=235	=235
1G	5	.	2r	4r	.	1G	a-	2r	.	2r	4r
.	.	.	.	4bb\	.	.	.	.	.	.	4bb\
.	.	.	[2gg\	4bb\	.	.	.	[2gg\	a-	[2gg\	4bb\
.	.	.	.	8aa\L	.	.	.	.	.	.	8aa\L
.	.	.	.	8ggn\J	.	.	.	.	.	.	8gg\J
=236	=236	=236	=236	=236	=236	=236	=236	=236	=236	=236	=236
1d	4	.	2gg\]	4aa\	.	1d	.	2gg\]	.	2gg\]	4aa\
.	.	.	.	4gg\	.	.	.	.	.	.	4gg\
.	3	.	[2ff#\	4aa\	.	.	.	[2ff#\	.	[2ff#\	4aa\
.	.	.	.	4ff#\	.	.	.	.	.	.	4ff#\
!	!	!	!	!	!	!LO:LB:g=original	!	!	!	!	!
=237	=237	=237	=237	=237	=237	=237	=237	=237	=237	=237	=237
1A	7 6	.	2ff#\]	4r	.	1A	.	2ff#\]	.	2ff#\]	4r
.	.	.	.	4gg\	.	.	.	.	.	.	4gg\
.	5	.	[2ee\	4gg\	.	.	.	[2ee\	.	[2ee\	4gg\
.	.	.	.	8ff#\L	.	.	.	.	.	.	8ff#\L
.	.	.	.	8ee\J	.	.	.	.	.	.	8ee\J
=238	=238	=238	=238	=238	=238	=238	=238	=238	=238	=238	=238
1D	3 9	.	2ee\]	4ff#\	.	1D	-men	2ee\]	.	2ee\]	4ff#\
.	.	.	.	4ee\	.	.	.	.	.	.	4ee\
.	8	.	[2dd\	4ff#\	.	.	.	[2dd\	.	2dd\	4ff#\
.	.	.	.	4dd\	.	.	.	.	.	.	4dd\
=239	=239	=239	=239	=239	=239	=239	=239	=239	=239	=239	=239
2GG/	6 5	.	2dd\]	1ee	.	(2G\	a-	2dd\]	.	2.a/	1eeT
2AA/	.	.	2cc#t\	.	.	2A\)	.	2cc#t\	.	.	.
.	.	.	.	.	.	.	.	.	.	4a/	.
=240	=240	=240	=240	=240	=240	=240	=240	=240	=240	=240	=240
4D\	.	.	4dd\	2dd\	.	4D/	-men	4dd\	-men	2f#/	2dd\
4d\	.	.	4ff#\	.	.	4d\	a-	[4ff#\	a-	.	.
4d\	6	.	4ff#\	[2bb\	.	4d\	.	4ff#\]	.	2r	2r
8c#\L	.	.	8ee\L	.	.	8c#\L	.	8ee\L	.	.	.
8B\J	.	.	8dd\J	.	.	8B\J	.	8dd\J	.	.	.
=241	=241	=241	=241	=241	=241	=241	=241	=241	=241	=241	=241
!	!	!	!	!	!	!	!	!	!	!	!LO:TX:a:i:t=11:color=brown
4c#\	7	.	4ee\	2bb\]	.	4c#\	.	4ee\	.	00r	00r
4B\	.	.	4dd\	.	.	4B\	.	4dd\	.	.	.
4c#\	6	.	4ee\	[2aa\	.	4c#\	.	4ee\	.	.	.
4A\	.	.	4cc#\	.	.	4A\	-men	4cc#\	-men	.	.
!	!	!	!	!LO:LB:g=original	!	!	!	!	!	!	!
=242	=242	=242	=242	=242	=242	=242	=242	=242	=242	=242	=242
4r	.	.	4r	2aa\]	.	4r	.	4r	.	.	.
4B\	7	.	4dd\	.	.	4B\	a-	4dd\	a-	.	.
4B\	6	.	4dd\	[2gg\	.	4B\	.	4dd\	.	.	.
8A\L	.	.	8cc#\L	.	.	8A\L	.	8cc#\L	.	.	.
8G\J	.	.	8b\J	.	.	8G\J	.	8b\J	.	.	.
!	!	!	!LO:LB:g=original	!	!	!	!	!	!	!	!
=243	=243	=243	=243	=243	=243	=243	=243	=243	=243	=243	=243
4A\	7	.	4cc#\	2gg\]	.	4A\	.	4cc#\	.	.	.
4G\	.	.	4b\	.	.	4G\	.	4b\	.	.	.
4A\	6	.	4cc#\	[2ff#\	.	4A\	.	4cc#\	.	.	.
4F#\	.	.	4a\	.	.	4F#\	-men	4a\	-men	.	.
!	!	!	!	!	!	!	!	!LO:LB:g=original	!	!	!
=244	=244	=244	=244	=244	=244	=244	=244	=244	=244	=244	=244
4r	7	.	4r	2ff#\]	.	4r	.	4r	.	.	.
4G\	.	.	4b/	.	.	4G\	a-	4b\	a-	.	.
4G\	6	.	4b/	[2ee\	.	4G\	.	4b\	.	.	.
8F#\L	.	.	8a/L	.	.	8F#\L	.	8a\L	.	.	.
8E\J	.	.	8g/J	.	.	8E\J	.	8g\J	.	.	.
=245	=245	=245	=245	=245	=245	=245	=245	=245	=245	=245	=245
4F#\	7	.	4a/	2ee\]	.	4F#\	.	2a\	.	00r	00r
4E\	6	.	4g/	.	.	4E\	.	.	.	.	.
4F#\	.	.	4a/	2dd\	.	4F#\	.	2dd\	-men	.	.
4D\	.	.	4f#/	.	.	4D\	-men	.	.	.	.
=246	=246	=246	=246	=246	=246	=246	=246	=246	=246	=246	=246
[>1AA	.	.	4e/	4cc#\	.	[1A	a-	[1a	a-	.	.
.	.	.	4g/	4ee\	.	.	.	.	.	.	.
.	.	.	4g/	4ee\	.	.	.	.	.	.	.
.	.	.	8f#/L	8dd\L	.	.	.	.	.	.	.
.	.	.	8e/J	8cc#\J	.	.	.	.	.	.	.
!LO:LB:g=original	!	!	!	!	!	!	!	!	!	!	!
=247	=247	=247	=247	=247	=247	=247	=247	=247	=247	=247	=247
1AA_>	.	.	4a/	4ff#\	.	1A_	.	1a_	.	.	.
.	.	.	4g/	4ee\	.	.	.	.	.	.	.
.	.	.	4a/	4ff#\	.	.	.	.	.	.	.
.	.	.	4f#/	4dd\	.	.	.	.	.	.	.
=248	=248	=248	=248	=248	=248	=248	=248	=248	=248	=248	=248
1AA_>	.	.	4cc#\	4ee\	.	1A_	.	1a_	.	.	.
.	.	.	4ee\	4gg\	.	.	.	.	.	.	.
.	.	.	4ee\	4gg\	.	.	.	.	.	.	.
.	.	.	8dd\L	8ff#\L	.	.	.	.	.	.	.
.	.	.	8cc#\J	8ee\J	.	.	.	.	.	.	.
=249	=249	=249	=249	=249	=249	=249	=249	=249	=249	=249	=249
1AA_>	.	.	4ff#\	4aa\	.	1A]	-men	1a_	-men	0r	0r
.	.	.	4ee\	4gg\	.	.	.	.	.	.	.
.	.	.	4ff#\	4aa\	.	.	.	.	.	.	.
.	.	.	4dd\	4ff#\	.	.	.	.	.	.	.
!	!	!	!	!	!	!LO:LB:g=original	!	!	!	!	!
=250	=250	=250	=250	=250	=250	=250	=250	=250	=250	=250	=250
1AA_>	.	.	4ee\	4gg\	.	1A	a-	1a_	a-	.	.
.	.	.	4gg\	4bb\	.	.	.	.	.	.	.
.	.	.	4gg\	4bb\	.	.	.	.	.	.	.
.	.	.	8ff#\L	8aa\L	.	.	.	.	.	.	.
.	.	.	8ee\J	8gg\J	.	.	.	.	.	.	.
=251	=251	=251	=251	=251	=251	=251	=251	=251	=251	=251	=251
1AA_>	.	.	4dd\	4ff#\	.	1A	.	1a_	.	1r	1r
.	.	.	8b\L	8gg\L	.	.	.	.	.	.	.
.	.	.	8a\J	8ff#\J	.	.	.	.	.	.	.
.	.	.	4g/	4ee\	.	.	.	.	.	.	.
.	.	.	4f#/	4dd\	.	.	.	.	.	.	.
!	!	!	!LO:LB:g=original	!LO:LB:g=original	!	!	!	!	!	!	!LO:LB:g=original
=252	=252	=252	=252	=252	=252	=252	=252	=252	=252	=252	=252
4AA/]	.	.	4e/	2cc#\	.	4A\	-men	4a\]	-men	2r	2r
4F#\	.	.	4a/	.	.	4F#\	a-	[4a\	a-	.	.
4F#\	6	.	4a/	[2dd\	.	4F#\	.	4a\]	.	[2dd\	[2dd\
8E\L	.	.	8g/L	.	.	8E\L	.	8g\L	.	.	.
8D\J	.	.	8f#/J	.	.	8D\J	.	8f#\J	.	.	.
=253	=253	=253	=253	=253	=253	=253	=253	=253	=253	=253	=253
4G\	5	.	4b/	2dd\]	.	4G\	.	4b\	.	2dd\]	2dd\]
4F#\	.	.	4a/	.	.	4F#\	.	4a\	.	.	.
4G\	6	.	4b/	[2ee\	.	4G\	.	4b\	.	[2ee\	[2ee\
4E\	.	.	4g/	.	.	4E\	-men	4g\	-men	.	.
=254	=254	=254	=254	=254	=254	=254	=254	=254	=254	=254	=254
4r	5	.	4r	2ee\]	.	4r	.	4r	.	2ee\]	2ee\]
4A\	.	.	4cc#\	.	.	4A\	a-	4cc#\	a-	.	.
4A\	6	.	4cc#\	[2ff#\	.	4A\	.	4cc#\	.	[2ff#\	[2ff#\
8G\L	.	.	8b\L	.	.	8G\L	.	8b\L	.	.	.
8F#\J	.	.	8a\J	.	.	8F#\J	.	8a\J	.	.	.
=255	=255	=255	=255	=255	=255	=255	=255	=255	=255	=255	=255
4B\	5	.	4dd\	2ff#\]	.	4B\	.	4dd\	.	2ff#\]	2ff#\]
4A\	.	.	4cc#\	.	.	4A\	.	4cc#\	.	.	.
4B\	6	.	4dd\	[2gg\	.	4B\	.	4dd\	.	[2gg\	[2gg\
4G\	.	.	4b\	.	.	4G\	-men	4b\	-men	.	.
!	!	!	!	!	!	!	!	!LO:LB:g=original	!	!LO:LB:g=original	!
=256	=256	=256	=256	=256	=256	=256	=256	=256	=256	=256	=256
4r	5	.	4r	2gg\]	.	4r	.	4r	.	2gg\]	2gg\]
4c#\	.	.	4ee\	.	.	4c#\	a-	[4ee\	a-	.	.
4c#\	6	.	4ee\	2aa\	.	4c#\	.	4ee\]	.	2ee\	2aa\
8B\L	.	.	8dd\L	.	.	8B\L	.	8dd\L	.	.	.
8A\J	.	.	8cc#\J	.	.	8A\J	.	8cc#\J	.	.	.
=257	=257	=257	=257	=257	=257	=257	=257	=257	=257	=257	=257
2D\	.	.	4dd\	4ff#\	.	2D\	-men	2dd\	-men	4ff#\	4aa\
.	.	.	4ff#\	4aa\	.	.	.	.	.	8a/L	8a/L
.	.	.	.	.	.	.	.	.	.	8a/J	8a/J
[2d\	.	.	4ff#\	4aa\	.	[2d\	a-	2ff#\	a-	4a/	4a/
.	.	.	8ee\L	8gg\L	.	.	.	.	.	4a/	4a/
.	.	.	8dd\J	8ff#\J	.	.	.	.	.	.	.
=258	=258	=258	=258	=258	=258	=258	=258	=258	=258	=258	=258
2d\]	2	.	4ee\	4ee\	.	2d\]	.	1ee	.	2a/	2a/
.	.	.	4dd\	8ff#\L	.	.	.	.	.	.	.
.	.	.	.	8gg\J	.	.	.	.	.	.	.
[2c#\	6	.	4ee\	4aa\	.	[2c#\	.	.	.	2r	2r
.	.	.	4cc#\	4a/	.	.	.	.	.	.	.
=259	=259	=259	=259	=259	=259	=259	=259	=259	=259	=259	=259
2c#\]	4 2	.	4r	4dd\	.	2c#\]	.	1dd	.	4r	4r
.	.	.	4dd\	4ff#\	.	.	.	.	.	8f#/L	8f#/L
.	.	.	.	.	.	.	.	.	.	8f#/J	8f#/J
[2B\	5 3	.	4dd\	4ff#\	.	[2B\	.	.	.	4f#/	4f#/
.	.	.	8cc#\L	8ee\L	.	.	.	.	.	4f#/	4f#/
.	.	.	8b\J	8dd\J	.	.	.	.	.	.	.
=260	=260	=260	=260	=260	=260	=260	=260	=260	=260	=260	=260
2B\]	4 2	.	4cc#\	4cc#\	.	2B\]	.	1cc#	.	2f#/	2f#/
.	.	.	4b\	8dd\L	.	.	.	.	.	.	.
.	.	.	.	8ee\J	.	.	.	.	.	.	.
[2A\	6	.	4cc#\	4ff#\	.	[2A\	.	.	.	2r	2r
.	.	.	4a\	4f#/	.	.	.	.	.	.	.
!	!	!	!LO:LB:g=original	!	!	!	!	!	!	!	!
=261	=261	=261	=261	=261	=261	=261	=261	=261	=261	=261	=261
2A\]	4 2	.	4r	4b\	.	2A\]	.	1b	.	4r	4r
.	.	.	4b/	4dd\	.	.	.	.	.	8d/L	8d/L
.	.	.	.	.	.	.	.	.	.	8d/J	8d/J
[2G\	5 3	.	4b/	4dd\	.	[2G\	.	.	.	4d/	4d/
.	.	.	8a/L	8cc#\L	.	.	.	.	.	4d/	4d/
.	.	.	8g/J	8b\J	.	.	.	.	.	.	.
!	!	!	!	!LO:LB:g=original	!	!LO:LB:g=original	!	!	!	!	!
=262	=262	=262	=262	=262	=262	=262	=262	=262	=262	=262	=262
2G\]	2	.	4a/	4a/	.	2G\]	.	2a\	-men	2d/	2d/
.	.	.	4g/	8b\L	.	.	.	.	.	.	.
.	.	.	.	8cc#\J	.	.	.	.	.	.	.
2F#\	6	.	4a/	[2dd\	.	2F#\	.	[2dd\	a-	2r	2r
.	.	.	4f#/	.	.	.	.	.	.	.	.
=263	=263	=263	=263	=263	=263	=263	=263	=263	=263	=263	=263
4E\	7	.	4g/	2dd\]	.	4E\	.	2dd\]	.	2.ee\	2.gg\
8F#\L	.	.	8a/L	.	.	8F#\L	.	.	.	.	.
8G\J	.	.	8b/J	.	.	8G\J	.	.	.	.	.
4A\	.	.	4e/	2cc#t\	.	4A\	.	2cc#\	.	.	.
4AA/	.	.	4a/	.	.	4AA/	.	.	.	4ee\	4gg\
=264	=264	=264	=264	=264	=264	=264	=264	=264	=264	=264	=264
2D/|	.	.	2a/|	2dd\|	.	2d\	-men	2dd\	-men	2dd\|	2ff#\|
2AA/|	.	.	2cc#\|	2ee\|	.	2A\	a-	2ee\	a-	2a/|	2ee\|
=265	=265	=265	=265	=265	=265	=265	=265	=265	=265	=265	=265
2DD/	.	.	2dd\|	2ff# 2a 2d/	.	2D\	-men.	2ff#\	-men.	2f#/	2dd\|
2r	.	.	2r	2r	.	2r	.	2r	.	2r	2r
==	==	==	==	==	==	==	==	==	==	==	==
*-	*-	*-	*-	*-	*-	*-	*-	*-	*-	*-	*-
!!!system-decoration: [(g1)][(g2)][(g3)]<s7>
!!!RDF**kern: > = above
!!!RDF**kern: < = below
!!!RDF**kern: | = vertical stroke
!!!ENC: Anastazja Marusiak
!!!END: 2022-03-30
!!!ENC: Andrzej Kubiczek
!!!END: 2022-04-09
!!!YEC: Copyright 2022 Narodowy Instytut Fryderyka Chopina (https://polishscores.org)
!!!YEM: License CC-BY-4.0 (https://creativecommons.org/licenses/by/4.0)
